(Generated by PartKam Version 0.05)

G20 G90 G40

(follow path 1)
G0 Z0.15
T0 M6
G17
M3
G0 X13.4372 Y1.8868
G1 Z-0.5 F30
G3 X13.4379 Y1.9713 I-5851.0594 J45.47 F60
G3 X13.4392 Y2.1417 I-23756.9381 J184.2775
G2 X13.4409 Y2.3658 I18208.254 J-141.107
G2 X13.4418 Y2.4775 I4521.1229 J-35.0926
G0 Z0.15
G0 X15.6626 Y1.9097
G1 Z-0.5 F30
G1 X15.6624 Y1.9096 F60
G1 X15.6623 Y1.9096
G2 X15.5923 Y1.8952 I-0.7188 J3.3075
G2 X15.565 Y1.8906 I-0.0975 J0.4991
G2 X15.5409 Y1.8889 I-0.0255 J0.1829
G2 X15.5273 Y1.8903 I-0.0004 J0.0589
G2 X15.5111 Y1.8975 I0.0104 J0.0454
G2 X15.497 Y1.9114 I0.0333 J0.048
G2 X15.4853 Y1.9328 I0.0814 J0.0585
G2 X15.4753 Y1.9659 I0.1883 J0.075
G2 X15.47 Y2.0052 I0.2565 J0.0542
G2 X15.4703 Y2.054 I0.3963 J0.0226
G2 X15.4754 Y2.0999 I0.5171 J-0.0342
G2 X15.4886 Y2.171 I1.2511 J-0.196
G2 X15.4983 Y2.2134 I1.7132 J-0.3697
G2 X15.5206 Y2.3035 I7.7618 J-1.8776
G0 Z0.15
G0 X25.1547 Y14.3598
G1 Z-0.5 F30
G2 X24.9521 Y14.5571 I50.2057 J51.7625 F60
G2 X24.8615 Y14.6465 I10.2169 J10.4514
G2 X24.7127 Y14.7977 I6.8166 J6.8526
G2 X24.6357 Y14.8811 I1.9949 J1.9194
G2 X24.5638 Y14.9681 I1.2241 J1.0847
G2 X24.5243 Y15.0258 I0.498 J0.3834
G2 X24.5027 Y15.0669 I0.3289 J0.1992
G2 X24.4908 Y15.1002 I0.2025 J0.0913
G2 X24.4865 Y15.1248 I0.1297 J0.0352
G2 X24.488 Y15.1354 I0.0243 J0.0019
G2 X24.4938 Y15.1433 I0.0174 J-0.0066
G2 X24.5096 Y15.1527 I0.0413 J-0.0513
G2 X24.5299 Y15.1599 I0.0725 J-0.1731
G2 X24.5586 Y15.1669 I0.0974 J-0.3368
G2 X24.5934 Y15.1723 I0.0786 J-0.3929
G2 X24.6312 Y15.1749 I0.0506 J-0.4601
G2 X24.673 Y15.1744 I0.0147 J-0.5297
G2 X24.7208 Y15.1703 I-0.0356 J-0.6927
G2 X24.7697 Y15.1626 I-0.087 J-0.7197
G2 X24.8167 Y15.1519 I-0.1282 J-0.671
G2 X24.8572 Y15.1399 I-0.1772 J-0.6682
G2 X24.9067 Y15.1221 I-0.3361 J-1.0128
G2 X24.936 Y15.1103 I-0.4635 J-1.1963
G2 X24.9945 Y15.0855 I-1.9896 J-4.7817
G3 X24.998 Y15.084 I33.7836 J78.4679
G3 X24.9998 Y15.0832 I8.4539 J19.6381
G3 X25.0467 Y15.0631 I8.4273 J19.5811
G3 X25.0879 Y15.0456 I6.4229 J15.0229
G3 X25.1317 Y15.0271 I4.7964 J11.3041
G3 X25.1594 Y15.0156 I1.9021 J4.5314
G3 X25.1978 Y15.0002 I0.7848 J1.9024
G3 X25.2325 Y14.9871 I0.6005 J1.5428
G1 X25.2325 Y14.9871
G1 X25.2325 Y14.9871
G0 Z0.15
G0 X24.4587 Y15.1611
G1 Z-0.5 F30
G1 X24.4587 Y15.1611 F60
G1 X24.4587 Y15.1611
G2 X24.3626 Y15.2754 I4.0595 J3.5109
G2 X24.3152 Y15.3366 I1.1199 J0.9153
G2 X24.2822 Y15.3835 I1.2831 J0.9388
G2 X24.251 Y15.4314 I1.3043 J0.8839
G2 X24.2224 Y15.4793 I1.1308 J0.7079
G2 X24.2046 Y15.513 I0.5424 J0.3088
G2 X24.1907 Y15.5492 I0.1929 J0.0947
G2 X24.1896 Y15.566 I0.039 J0.011
G2 X24.1973 Y15.5825 I0.0312 J-0.0045
G2 X24.222 Y15.6022 I0.0707 J-0.0632
G2 X24.2503 Y15.6157 I0.121 J-0.2179
G2 X24.307 Y15.6362 I0.3423 J-0.8549
G2 X24.3494 Y15.6494 I0.4341 J-1.3305
G2 X24.4024 Y15.6641 I0.598 J-2.0519
G2 X24.4469 Y15.6742 I0.1715 J-0.6502
G2 X24.4807 Y15.6791 I0.0712 J-0.3701
G2 X24.5232 Y15.6819 I0.0646 J-0.6478
G2 X24.6214 Y15.6839 I0.1173 J-3.4618
G2 X24.7592 Y15.6837 I0.0554 J-9.9081
G2 X25.2625 Y15.6786 I-1.0992 J-132.1958
G1 X25.2633 Y15.6785
G3 X25.2646 Y15.6785 I114.8878 J9477.2341
G0 Z0.15
G0 X24.4816 Y15.6785
G1 Z-0.5 F30
G1 X24.4816 Y15.6785 F60
G1 X24.4816 Y15.6786
G2 X24.4653 Y15.7401 I0.9437 J0.2831
G2 X24.4587 Y15.7778 I0.3467 J0.08
G2 X24.4562 Y15.8102 I0.3875 J0.0465
G2 X24.4565 Y15.8386 I0.2952 J0.0106
G2 X24.461 Y15.8722 I0.2375 J-0.0143
G2 X24.4687 Y15.8976 I0.1426 J-0.0293
G2 X24.4824 Y15.9226 I0.1128 J-0.0457
G2 X24.5023 Y15.9447 I0.1083 J-0.0773
G2 X24.5266 Y15.9627 I0.1094 J-0.1231
G2 X24.5632 Y15.9815 I0.1582 J-0.2621
G2 X24.6025 Y15.9964 I0.1761 J-0.407
G2 X24.6552 Y16.0114 I0.2331 J-0.7188
G2 X24.7099 Y16.023 I0.2176 J-0.8853
G2 X24.7724 Y16.0326 I0.2082 J-1.1461
G2 X24.8289 Y16.0386 I0.1699 J-1.3485
G2 X24.9066 Y16.0439 I0.2132 J-2.546
G2 X24.9533 Y16.046 I0.1728 J-3.2529
G2 X25.0494 Y16.0494 I0.5328 J-13.7571
G0 Z0.15
G0 X19.1975 Y9.3871
G1 Z-0.5 F30
G1 X19.1973 Y9.3871 F60
G1 X19.1973 Y9.3871
G2 X19.0143 Y9.3767 I-0.6196 J9.2943
G2 X18.8724 Y9.3718 I-0.262 J5.583
G2 X18.74 Y9.3704 I-0.1326 J6.1509
G2 X18.6269 Y9.3718 I-0.0002 J4.4896
G2 X18.4731 Y9.3786 I0.1021 J4.0578
G2 X18.3367 Y9.3901 I0.2026 J3.2076
G2 X18.1891 Y9.4093 I0.3323 J3.1334
G2 X18.0251 Y9.4381 I0.5999 J3.8927
G2 X17.8694 Y9.4718 I0.882 J4.4615
G2 X17.6848 Y9.5179 I1.4792 J6.3118
G2 X17.5047 Y9.5681 I1.9884 J7.4884
G2 X17.3058 Y9.6284 I2.6811 J9.1962
G2 X17.1063 Y9.6936 I2.9844 J9.4671
G2 X16.9142 Y9.761 I2.9995 J8.8577
G2 X16.7057 Y9.8403 I2.5495 J7.0217
G2 X16.5362 Y9.9112 I1.8706 J4.7086
G2 X16.3412 Y10.0023 I1.8904 J4.2975
G2 X16.1525 Y10.1014 I2.0428 J4.1204
G2 X15.9502 Y10.2201 I2.3974 J4.3204
G2 X15.7437 Y10.3544 I2.8665 J4.6328
G2 X15.5305 Y10.5076 I3.119 J4.5658
G2 X15.3268 Y10.6692 I3.2684 J4.3281
G2 X15.1411 Y10.8307 I3.7188 J4.4626
G2 X14.9284 Y11.0309 I5.5021 J6.0609
G2 X14.764 Y11.1951 I6.6427 J6.8122
G2 X14.5754 Y11.3923 I9.381 J9.1618
G2 X14.4338 Y11.5457 I10.4655 J9.8038
G2 X14.2838 Y11.7128 I12.2855 J11.1775
G2 X14.1948 Y11.8141 I13.417 J11.8792
G2 X14.0279 Y12.0062 I48.1898 J42.0245
G2 X13.9654 Y12.0765 I25.266 J22.5197
G2 X13.935 Y12.111 I6.0552 J5.3669
G2 X13.8849 Y12.1689 I4.8395 J4.2405
G2 X13.8482 Y12.2126 I2.7125 J2.3203
G2 X13.8071 Y12.2633 I2.2746 J1.8836
G2 X13.7715 Y12.3094 I1.8442 J1.4597
G2 X13.736 Y12.3581 I1.6577 J1.2465
G2 X13.7064 Y12.4014 I1.2847 J0.9089
G2 X13.6964 Y12.4169 I1.0685 J0.7037
G2 X13.6763 Y12.4486 I4.4258 J2.824
G3 X13.6478 Y12.4932 I-3.0639 J-1.9243
G3 X13.6337 Y12.5142 I-0.6899 J-0.4475
G3 X13.6087 Y12.5479 I-0.5157 J-0.3575
G3 X13.5891 Y12.5702 I-0.2461 J-0.1962
G3 X13.5583 Y12.5978 I-0.2057 J-0.1985
G3 X13.4948 Y12.6431 I-0.62 J-0.8015
G2 X13.4659 Y12.6625 I1.1924 J1.8142
G2 X13.4517 Y12.6725 I0.3016 J0.4432
G2 X13.4185 Y12.6988 I0.3129 J0.4293
G2 X13.3888 Y12.7265 I0.3178 J0.3701
G2 X13.3609 Y12.7575 I0.3258 J0.321
G2 X13.338 Y12.7885 I0.3018 J0.2474
G2 X13.3194 Y12.8195 I0.3277 J0.2184
G2 X13.3023 Y12.8544 I0.4011 J0.217
G2 X13.2904 Y12.8846 I0.4296 J0.187
G2 X13.2815 Y12.9129 I0.3696 J0.1313
G2 X13.2789 Y12.9237 I0.2435 J0.0663
G2 X13.2747 Y12.9432 I0.7932 J0.1788
G3 X13.2646 Y12.9819 I-0.3398 J-0.0679
G3 X13.2549 Y13.0044 I-0.124 J-0.0401
G3 X13.2413 Y13.0262 I-0.1929 J-0.1056
G3 X13.2003 Y13.0813 I-1.2797 J-0.9098
G2 X13.1833 Y13.1032 I3.148 J2.4523
G2 X13.1755 Y13.1136 I0.6945 J0.5333
G2 X13.1578 Y13.1382 I0.6577 J0.4897
G2 X13.1407 Y13.1641 I0.7138 J0.4917
G2 X13.1294 Y13.1823 I0.7939 J0.5059
G2 X13.1124 Y13.2107 I1.9147 J1.1595
G2 X13.0954 Y13.242 I0.4875 J0.2855
G2 X13.0875 Y13.2602 I0.1572 J0.0792
G2 X13.0795 Y13.2912 I0.1507 J0.0557
G2 X13.0778 Y13.3227 I0.1546 J0.024
G2 X13.0822 Y13.3569 I0.2163 J-0.0104
G2 X13.0948 Y13.4035 I0.4133 J-0.0871
G2 X13.1109 Y13.4455 I0.4912 J-0.1638
G2 X13.1312 Y13.4876 I0.5129 J-0.2222
G2 X13.1519 Y13.5229 I0.4729 J-0.2538
G2 X13.1763 Y13.5581 I0.4958 J-0.3169
G2 X13.1973 Y13.5846 I0.496 J-0.3704
G2 X13.2213 Y13.612 I0.553 J-0.4621
G2 X13.242 Y13.6334 I0.525 J-0.4859
G2 X13.2595 Y13.6499 I0.3337 J-0.3356
G2 X13.2762 Y13.664 I0.2435 J-0.2713
G2 X13.2885 Y13.673 I0.1117 J-0.1405
G2 X13.3052 Y13.6818 I0.0507 J-0.0764
G2 X13.3227 Y13.6867 I0.0315 J-0.0787
G1 X13.3227 Y13.6867
G1 X13.3228 Y13.6867
G0 Z0.15
G0 X14.408 Y11.53
G1 Z-0.5 F30
G1 X14.408 Y11.53 F60
G1 X14.4079 Y11.53
G3 X14.3427 Y11.4657 I6.9236 J-7.0884
G3 X14.313 Y11.4355 I1.4984 J-1.506
G3 X14.2651 Y11.3835 I1.0794 J-1.0423
G3 X14.2379 Y11.35 I0.4218 J-0.3706
G3 X14.222 Y11.3273 I0.3261 J-0.2448
G3 X14.1989 Y11.29 I0.8547 J-0.555
G2 X14.171 Y11.2476 I-0.4446 J0.2622
G2 X14.1546 Y11.2294 I-0.0975 J0.0713
G2 X14.1291 Y11.2108 I-0.0992 J0.1095
G2 X14.0932 Y11.1941 I-0.1163 J0.202
G2 X14.056 Y11.1832 I-0.0993 J0.2701
G2 X14.0112 Y11.1759 I-0.0853 J0.386
G2 X13.9636 Y11.1738 I-0.0426 J0.4144
G2 X13.9177 Y11.1771 I0.0047 J0.3897
G2 X13.8677 Y11.1872 I0.0479 J0.366
G2 X13.8219 Y11.2034 I0.0889 J0.323
G2 X13.7764 Y11.2276 I0.1361 J0.31
G2 X13.7324 Y11.2603 I0.2062 J0.3247
G2 X13.6924 Y11.2996 I0.2678 J0.3124
G2 X13.6555 Y11.3469 I0.3521 J0.3125
G2 X13.6259 Y11.3956 I0.4497 J0.3066
G2 X13.5962 Y11.457 I0.6887 J0.3706
G2 X13.5747 Y11.5121 I0.8051 J0.3465
G2 X13.557 Y11.5682 I0.8156 J0.2874
G2 X13.5428 Y11.6318 I0.6138 J0.1704
G2 X13.5276 Y11.7413 I1.8042 J0.3068
G3 X13.5264 Y11.7524 I-24.1695 J-2.6227
G3 X13.5258 Y11.7582 I-6.4184 J-0.6995
G3 X13.5177 Y11.8262 I-3.8512 J-0.4233
G3 X13.512 Y11.8656 I-1.3015 J-0.1664
G3 X13.5006 Y11.9223 I-0.6834 J-0.1085
G3 X13.4937 Y11.94 I-0.0721 J-0.0177
G3 X13.489 Y11.9462 I-0.0225 J-0.0122
G3 X13.4851 Y11.9483 I-0.0056 J-0.0059
G3 X13.4812 Y11.9481 I-0.0016 J-0.0072
G3 X13.4758 Y11.9451 I0.0057 J-0.0168
G3 X13.4701 Y11.9394 I0.0213 J-0.0268
G3 X13.4552 Y11.9187 I0.2658 J-0.2068
G2 X13.4479 Y11.9077 I-0.7042 J0.4667
G2 X13.4442 Y11.9025 I-0.1635 J0.1121
G2 X13.4277 Y11.8838 I-0.1142 J0.0838
G2 X13.4105 Y11.8704 I-0.0743 J0.078
G2 X13.3889 Y11.8595 I-0.072 J0.1152
G2 X13.3532 Y11.8475 I-0.1228 J0.3068
G2 X13.3111 Y11.8377 I-0.1483 J0.5433
G2 X13.2606 Y11.8297 I-0.1485 J0.7739
G2 X13.2025 Y11.8247 I-0.0938 J0.7483
G2 X13.1526 Y11.8246 I-0.0262 J0.5518
G2 X13.0994 Y11.8301 I0.0194 J0.4514
G2 X13.052 Y11.841 I0.0601 J0.3691
G2 X13.0056 Y11.8585 I0.1036 J0.345
G2 X12.961 Y11.8826 I0.1576 J0.3443
G2 X12.9273 Y11.9062 I0.2345 J0.3713
G2 X12.8852 Y11.9411 I0.4719 J0.6116
G2 X12.8615 Y11.963 I0.6296 J0.7066
G2 X12.8171 Y12.0061 I2.41 J2.5258
G3 X12.8084 Y12.0147 I-10.7073 J-10.8302
G3 X12.8042 Y12.0188 I-2.5378 J-2.5711
G3 X12.8008 Y12.0222 I-2.3936 J-2.4328
G3 X12.7942 Y12.0286 I-9.2168 J-9.3939
G2 X12.7551 Y12.0681 I1.3265 J1.3539
G2 X12.7373 Y12.0877 I0.3121 J0.3005
G2 X12.7113 Y12.1221 I0.2831 J0.2409
G2 X12.6918 Y12.1559 I0.2531 J0.1691
G2 X12.6737 Y12.1989 I0.3324 J0.165
G2 X12.6578 Y12.2535 I0.521 J0.1814
G2 X12.6477 Y12.3086 I0.5453 J0.1287
G2 X12.6443 Y12.3551 I0.3852 J0.0511
G2 X12.6476 Y12.4008 I0.2705 J0.0034
G2 X12.6573 Y12.4371 I0.1807 J-0.0286
G2 X12.6742 Y12.4708 I0.1722 J-0.0655
G2 X12.7023 Y12.5077 I0.2355 J-0.1502
G2 X12.7305 Y12.5361 I0.3104 J-0.2801
G2 X12.7763 Y12.5754 I0.6393 J-0.6989
G2 X12.8035 Y12.5966 I0.7514 J-0.9347
G2 X12.8517 Y12.6325 I2.2009 J-2.9048
G3 X12.8534 Y12.6338 I-38.5659 J52.6828
G3 X12.8543 Y12.6344 I-9.3215 J12.7327
G3 X12.8737 Y12.6487 I-1.353 J1.848
G3 X12.8816 Y12.6548 I-0.235 J0.314
G3 X12.8931 Y12.6645 I-0.1457 J0.1847
G3 X12.8989 Y12.6703 I-0.0461 J0.0513
G3 X12.9039 Y12.6777 I-0.0272 J0.0239
G3 X12.9052 Y12.6825 I-0.0105 J0.0054
G3 X12.904 Y12.6874 I-0.0095 J0.0004
G3 X12.8995 Y12.693 I-0.0173 J-0.0093
G3 X12.8931 Y12.6976 I-0.0262 J-0.0305
G3 X12.8787 Y12.7048 I-0.0832 J-0.1475
G3 X12.8695 Y12.7087 I-0.1144 J-0.2575
G3 X12.847 Y12.7176 I-0.6252 J-1.5524
G2 X12.8093 Y12.7327 I0.4977 J1.2895
G2 X12.7909 Y12.7411 I0.1342 J0.3196
G2 X12.7635 Y12.7563 I0.14 J0.2852
G2 X12.7133 Y12.7892 I0.6178 J0.997
G3 X12.6881 Y12.8064 I-1.4252 J-2.0568
G3 X12.6749 Y12.8152 I-0.381 J-0.5644
G3 X12.6673 Y12.8199 I-0.3786 J-0.5901
G3 X12.6517 Y12.8296 I-1.5572 J-2.4967
G2 X12.6174 Y12.8514 I0.732 J1.1901
G2 X12.6009 Y12.8629 I0.1879 J0.2865
G2 X12.5753 Y12.8845 I0.1631 J0.2194
G2 X12.5581 Y12.9038 I0.1117 J0.1171
G2 X12.5405 Y12.9331 I0.1237 J0.0939
G2 X12.5273 Y12.971 I0.1949 J0.0892
G2 X12.5209 Y13.0077 I0.2641 J0.0651
G2 X12.5184 Y13.0564 I0.4639 J0.0486
G2 X12.5206 Y13.1064 I0.5636 J-0.0001
G2 X12.5274 Y13.1569 I0.5805 J-0.0519
G2 X12.5402 Y13.2126 I0.5667 J-0.1011
G2 X12.5581 Y13.2655 I0.5305 J-0.1501
G2 X12.5807 Y13.3156 I0.5538 J-0.2194
G2 X12.6138 Y13.3754 I0.8224 J-0.4172
G2 X12.6446 Y13.4235 I0.9925 J-0.5998
G2 X12.6879 Y13.4853 I1.6793 J-1.1313
G2 X12.7364 Y13.5488 I1.4518 J-1.0587
G2 X12.7735 Y13.5924 I0.7205 J-0.5763
G2 X12.8264 Y13.6451 I0.5472 J-0.4963
G2 X12.8741 Y13.6829 I0.3288 J-0.3651
G2 X12.9299 Y13.7164 I0.2728 J-0.3911
G2 X12.9907 Y13.7425 I0.2241 J-0.4386
G2 X13.0519 Y13.7595 I0.1543 J-0.4389
G2 X13.1061 Y13.7661 I0.0687 J-0.3366
G2 X13.1549 Y13.7641 I0.0126 J-0.2965
G2 X13.2018 Y13.7543 I-0.035 J-0.2846
G2 X13.238 Y13.7408 I-0.0831 J-0.2787
G2 X13.2724 Y13.7226 I-0.121 J-0.2688
G2 X13.2833 Y13.7155 I-0.1452 J-0.2343
G2 X13.302 Y13.7022 I-0.4894 J-0.7123
G3 X13.324 Y13.6869 I0.3596 J0.4946
G3 X13.3356 Y13.68 I0.0869 J0.1312
G3 X13.3558 Y13.6708 I0.0712 J0.1308
G3 X13.3778 Y13.6646 I0.0546 J0.1497
G3 X13.4127 Y13.66 I0.0467 J0.2233
G3 X13.4664 Y13.66 I0.0273 J0.527
G3 X13.5176 Y13.6644 I-0.0353 J0.7063
G3 X13.5777 Y13.6737 I-0.121 J0.9808
G3 X13.6109 Y13.6805 I-0.1903 J1.0212
G3 X13.679 Y13.696 I-0.9484 J4.3036
G2 X13.7701 Y13.7163 I0.7633 J-3.22
G2 X13.8143 Y13.7241 I0.1554 J-0.749
G2 X13.8722 Y13.7303 I0.1064 J-0.7243
G2 X13.9289 Y13.7317 I0.046 J-0.6929
G2 X13.9843 Y13.7286 I-0.0105 J-0.6858
G2 X14.0394 Y13.721 I-0.0662 J-0.6853
G2 X14.0921 Y13.7095 I-0.1269 J-0.7088
G2 X14.1446 Y13.6939 I-0.1847 J-0.717
G2 X14.1938 Y13.6752 I-0.2255 J-0.6668
G2 X14.2355 Y13.6554 I-0.2112 J-0.4983
G2 X14.2723 Y13.6337 I-0.216 J-0.4086
G2 X14.3037 Y13.6109 I-0.2092 J-0.3203
G2 X14.3292 Y13.5881 I-0.2219 J-0.2743
G2 X14.3507 Y13.5646 I-0.2156 J-0.2192
G2 X14.3684 Y13.5405 I-0.2027 J-0.1673
G2 X14.3795 Y13.5203 I-0.1312 J-0.0852
G2 X14.3871 Y13.4981 I-0.1069 J-0.0488
G2 X14.3889 Y13.4799 I-0.0693 J-0.0161
G2 X14.3855 Y13.4617 I-0.0604 J0.0019
G2 X14.3768 Y13.4456 I-0.0552 J0.0194
G2 X14.3631 Y13.4323 I-0.0531 J0.0406
G2 X14.3423 Y13.4204 I-0.062 J0.0848
G2 X14.3227 Y13.4137 I-0.0567 J0.1333
G2 X14.2905 Y13.4067 I-0.0937 J0.3534
G2 X14.2704 Y13.4036 I-0.0896 J0.5255
G2 X14.2239 Y13.3979 I-0.3723 J2.8274
G3 X14.2169 Y13.3971 I2.5997 J-22.6077
G3 X14.2134 Y13.3967 I0.6706 J-5.8161
G3 X14.1632 Y13.3904 I0.3346 J-2.8858
G3 X14.1292 Y13.3854 I0.1781 J-1.3327
G3 X14.0795 Y13.3764 I0.1919 J-1.2013
G3 X14.0341 Y13.3662 I0.2059 J-1.0161
G3 X13.9857 Y13.3529 I0.2745 J-1.0983
G3 X13.929 Y13.3349 I0.4556 J-1.5314
G3 X13.8769 Y13.3164 I0.5865 J-1.7323
G3 X13.8204 Y13.2945 I0.7703 J-2.0675
G3 X13.7709 Y13.2738 I0.8941 J-2.2121
G3 X13.7159 Y13.2494 I1.1906 J-2.7651
G3 X13.6717 Y13.229 I1.399 J-3.078
G3 X13.6205 Y13.2044 I1.9649 J-4.163
G3 X13.578 Y13.1835 I2.2125 J-4.5417
G3 X13.5377 Y13.1631 I2.0458 J-4.1014
G3 X13.5018 Y13.1446 I2.0185 J-3.9489
G3 X13.4663 Y13.1258 I2.0271 J-3.8782
G3 X13.4293 Y13.1057 I1.4877 J-2.7836
G3 X13.4046 Y13.0918 I0.692 J-1.2543
G3 X13.3748 Y13.0739 I0.5365 J-0.9284
G3 X13.3526 Y13.0594 I0.329 J-0.5291
G3 X13.3222 Y13.0369 I0.282 J-0.4132
G3 X13.2724 Y12.9953 I0.9161 J-1.1455
G1 X13.2724 Y12.9953
G1 X13.2724 Y12.9953
G0 Z0.15
G0 X14.3713 Y13.4028
G1 Z-0.5 F30
G2 X14.3956 Y13.3843 I-1.1836 J-1.5781 F60
G2 X14.4073 Y13.3749 I-0.2904 J-0.3749
G2 X14.426 Y13.3584 I-0.2423 J-0.2933
G2 X14.4392 Y13.3448 I-0.1523 J-0.1615
G2 X14.4531 Y13.3273 I-0.1394 J-0.1245
G2 X14.4636 Y13.31 I-0.1267 J-0.0885
G2 X14.4722 Y13.2899 I-0.1336 J-0.0694
G2 X14.4782 Y13.2678 I-0.155 J-0.0536
G2 X14.4812 Y13.245 I-0.1915 J-0.0375
G2 X14.482 Y13.2171 I-0.2885 J-0.0218
G2 X14.4804 Y13.191 I-0.3303 J0.007
G2 X14.4767 Y13.164 I-0.36 J0.0362
G2 X14.4709 Y13.1379 I-0.3251 J0.0577
G2 X14.464 Y13.1158 I-0.2403 J0.0631
G2 X14.4544 Y13.0935 I-0.2007 J0.0733
G2 X14.4439 Y13.0755 I-0.1428 J0.0713
G2 X14.43 Y13.0585 I-0.1024 J0.0692
G2 X14.4125 Y13.0432 I-0.0997 J0.0971
G2 X14.3912 Y13.0296 I-0.1207 J0.1649
G2 X14.3528 Y13.01 I-0.2915 J0.5235
G2 X14.3127 Y12.9923 I-0.4467 J0.9588
G2 X14.1912 Y12.9427 I-3.6385 J8.739
G3 X14.1457 Y12.9245 I12.6124 J-31.5165
G3 X14.1226 Y12.9152 I3.2826 J-8.1685
G3 X14.0449 Y12.8831 I2.3808 J-5.8761
G3 X13.9909 Y12.8597 I1.2026 J-2.8588
G3 X13.9214 Y12.8276 I0.9651 J-2.1777
G3 X13.87 Y12.8015 I0.5871 J-1.2176
G3 X13.8185 Y12.7722 I0.5508 J-1.0278
G3 X13.7709 Y12.7417 I0.547 J-0.9068
G3 X13.731 Y12.7131 I0.5623 J-0.8287
G3 X13.6953 Y12.6847 I0.5196 J-0.6903
G3 X13.6541 Y12.6472 I0.4298 J-0.5123
G3 X13.5975 Y12.5877 I1.0217 J-1.0299
G1 X13.5975 Y12.5877
G1 X13.5975 Y12.5877
G0 Z0.15
G0 X14.5041 Y13.0868
G1 Z-0.5 F30
G1 X14.5041 Y13.0868 F60
G1 X14.5041 Y13.0868
G2 X14.5278 Y13.085 I-0.0566 J-0.8764
G2 X14.5387 Y13.0837 I-0.0172 J-0.1875
G2 X14.5565 Y13.0797 I-0.02 J-0.1326
G2 X14.5675 Y13.0752 I-0.0163 J-0.0554
G2 X14.5783 Y13.0667 I-0.0191 J-0.0356
G2 X14.5847 Y13.0562 I-0.0236 J-0.0214
G2 X14.587 Y13.0425 I-0.0373 J-0.0135
G2 X14.5845 Y13.0214 I-0.0913 J0.0005
G2 X14.5729 Y12.9884 I-0.1759 J0.0428
G2 X14.5365 Y12.9175 I-0.8521 J0.393
G2 X14.5122 Y12.8762 I-1.3657 J0.7767
G2 X14.4542 Y12.7824 I-7.0927 J4.3252
G3 X14.4365 Y12.7543 I23.9102 J-15.0196
G3 X14.4279 Y12.7405 I5.7821 J-3.6227
G3 X14.3824 Y12.6665 I5.7215 J-3.5658
G3 X14.3367 Y12.5898 I6.0952 J-3.6905
G3 X14.2993 Y12.5257 I6.5311 J-3.8435
G3 X14.2569 Y12.4512 I8.7502 J-5.0347
G3 X14.2487 Y12.4366 I10.0459 J-5.667
G3 X14.2325 Y12.4079 I38.7373 J-21.7779
G2 X14.1523 Y12.2685 I-6.4162 J3.6009
G2 X14.118 Y12.2139 I-1.017 J0.6003
G2 X14.0885 Y12.1719 I-0.8422 J0.5612
G2 X14.0558 Y12.1301 I-0.8657 J0.6426
G2 X14.0353 Y12.1058 I-0.8754 J0.7192
G2 X13.9959 Y12.0612 I-2.9877 J2.5987
G0 Z0.15
G0 X13.2587 Y13.7783
G1 Z-0.5 F30
G1 X13.2587 Y13.7783 F60
G3 X13.2779 Y13.8734 I-2.1145 J0.4775
G3 X13.2861 Y13.9317 I-0.7849 J0.1406
G3 X13.2898 Y13.9827 I-0.8149 J0.0846
G3 X13.29 Y14.0266 I-0.6055 J0.0249
G3 X13.2855 Y14.0812 I-0.5255 J-0.0165
G3 X13.2762 Y14.1278 I-0.3923 J-0.0536
G3 X13.2609 Y14.1744 I-0.381 J-0.0996
G3 X13.2366 Y14.2269 I-0.5099 J-0.2038
G3 X13.2112 Y14.2709 I-0.5969 J-0.3151
G3 X13.1747 Y14.3255 I-0.9551 J-0.6
G3 X13.1347 Y14.3787 I-1.0443 J-0.7443
G3 X13.0956 Y14.425 I-0.8307 J-0.6596
G3 X13.0472 Y14.4755 I-0.7178 J-0.6401
G3 X13 Y14.5178 I-0.5484 J-0.5658
G3 X12.951 Y14.5551 I-0.5123 J-0.6216
G3 X12.8888 Y14.596 I-0.6783 J-0.9645
G3 X12.8397 Y14.6247 I-0.7574 J-1.2361
G3 X12.7695 Y14.6627 I-1.3945 J-2.4902
G3 X12.7027 Y14.6968 I-1.5768 J-3.0102
G3 X12.651 Y14.7215 I-0.8786 J-1.7713
G3 X12.5887 Y14.7485 I-0.6398 J-1.3895
G3 X12.5406 Y14.7665 I-0.3309 J-0.8118
G3 X12.492 Y14.7813 I-0.2375 J-0.6969
G3 X12.4424 Y14.7926 I-0.1887 J-0.711
G3 X12.4025 Y14.7992 I-0.1502 J-0.7792
G3 X12.3506 Y14.8055 I-0.1834 J-1.3082
G3 X12.2948 Y14.8095 I-0.1009 J-1.0085
G3 X12.2585 Y14.8096 I-0.019 J-0.4261
G3 X12.2089 Y14.8039 I0.0138 J-0.3417
G3 X12.1682 Y14.7925 I0.0454 J-0.2404
G3 X12.1288 Y14.774 I0.0956 J-0.2541
G3 X12.0868 Y14.7459 I0.182 J-0.3178
G3 X12.0533 Y14.7165 I0.22 J-0.2845
G3 X12.0347 Y14.6941 I0.109 J-0.1098
G3 X12.0258 Y14.6743 I0.0502 J-0.0343
G3 X12.0268 Y14.662 I0.019 J-0.0047
G3 X12.0313 Y14.6554 I0.019 J0.008
G3 X12.0452 Y14.6437 I0.0754 J0.0761
G0 Z0.15
G0 X12.961 Y14.5613
G1 Z-0.5 F30
G3 X12.9625 Y14.6992 I-149.6676 J1.6494 F60
G3 X12.9631 Y14.7692 I-38.5605 J0.3894
G3 X12.9639 Y14.8841 I-31.5302 J0.2612
G3 X12.9641 Y14.9742 I-19.4218 J0.0901
G3 X12.9641 Y14.9935 I-17.8256 J-0.0002
G3 X12.964 Y15.0319 I-70.8803 J-0.0773
G2 X12.9657 Y15.2641 I12.7975 J0.0209
G2 X12.9702 Y15.4053 I4.7427 J-0.0783
G2 X12.9785 Y15.5445 I5.0988 J-0.2363
G2 X12.9903 Y15.6784 I4.7341 J-0.3491
G2 X13.0097 Y15.8402 I4.7558 J-0.4865
G2 X13.035 Y16.0052 I4.9636 J-0.6794
G2 X13.0667 Y16.1753 I5.7517 J-0.9835
G2 X13.1099 Y16.3766 I8.0996 J-1.6334
G2 X13.1543 Y16.5621 I8.5946 J-1.9573
G2 X13.1992 Y16.7325 I7.305 J-1.8307
G2 X13.2444 Y16.8884 I5.6966 J-1.5702
G2 X13.2875 Y17.0218 I4.2122 J-1.2865
G2 X13.3308 Y17.1429 I4.0345 J-1.374
G2 X13.3838 Y17.2789 I5.1336 J-1.9232
G2 X13.4398 Y17.4127 I6.1973 J-2.5118
G2 X13.499 Y17.5462 I6.224 J-2.6813
G2 X13.5651 Y17.6865 I5.8089 J-2.6522
G2 X13.6273 Y17.8101 I4.569 J-2.2218
G2 X13.6934 Y17.9324 I3.9843 J-2.0735
G2 X13.7637 Y18.0535 I3.9812 J-2.231
G2 X13.8333 Y18.1658 I4.322 J-2.5994
G2 X13.9219 Y18.3015 I6.4009 J-4.0818
G2 X14.0241 Y18.4509 I6.7438 J-4.5058
G2 X14.1159 Y18.5784 I4.9993 J-3.5041
G2 X14.2347 Y18.7329 I4.3202 J-3.1969
G2 X14.3431 Y18.8632 I3.1772 J-2.5345
G2 X14.4278 Y18.9578 I3.1093 J-2.7
G2 X14.5354 Y19.0714 I4.6002 J-4.2503
G2 X14.5994 Y19.1364 I5.1291 J-4.9822
G2 X14.7151 Y19.2517 I16.2034 J-16.1463
G3 X14.7735 Y19.3096 I-21.9298 J22.1667
G3 X14.7988 Y19.3349 I-4.1567 J4.1794
G3 X14.8752 Y19.4136 I-3.3516 J3.3294
G3 X14.9337 Y19.4771 I-2.1254 J2.0155
G3 X14.9678 Y19.5161 I-1.8082 J1.6162
G3 X15.0215 Y19.5798 I-4.7646 J4.0789
G0 Z0.15
G0 X21.2764 Y20.6604
G1 Z-0.5 F30
G1 X21.2763 Y20.6604 F60
G1 X21.2763 Y20.6604
G2 X21.2374 Y20.6077 I-0.5642 J0.3762
G2 X21.2063 Y20.5747 I-0.251 J0.2049
G2 X21.1766 Y20.5498 I-0.2593 J0.2805
G2 X21.1363 Y20.522 I-0.3657 J0.4866
G2 X21.0843 Y20.4918 I-0.4325 J0.6835
G2 X21.0122 Y20.4559 I-0.683 J1.2812
G2 X20.9197 Y20.4158 I-0.8264 J1.7817
G2 X20.818 Y20.3776 I-0.8518 J2.1144
G2 X20.6909 Y20.3375 I-0.7452 J2.1385
G2 X20.5667 Y20.3063 I-0.5705 J2.011
G2 X20.4451 Y20.2832 I-0.4835 J2.2125
G2 X20.2849 Y20.2607 I-0.6182 J3.8186
G2 X20.1815 Y20.2495 I-0.5629 J4.721
G2 X20.0157 Y20.2346 I-1.1776 J12.1271
G2 X19.8671 Y20.2235 I-0.7133 J8.5583
G2 X19.7866 Y20.2195 I-0.1655 J2.5111
G2 X19.6689 Y20.2185 I-0.0774 J2.2923
G2 X19.547 Y20.2237 I0.0433 J2.4659
G2 X19.4204 Y20.2346 I0.2199 J3.2751
G2 X19.2467 Y20.2555 I0.6566 J6.1863
G2 X19.0926 Y20.2779 I1.0136 J7.5262
G2 X18.9305 Y20.3048 I1.3011 J8.3614
G2 X18.7771 Y20.3334 I1.2187 J6.9419
G2 X18.6527 Y20.3599 I0.9117 J4.5933
G2 X18.5228 Y20.3916 I0.907 J3.9979
G2 X18.4023 Y20.4253 I0.9071 J3.4698
G2 X18.2769 Y20.4654 I1.0119 J3.3836
G2 X18.1612 Y20.5074 I0.9924 J2.9173
G2 X18.0411 Y20.5569 I0.9993 J2.5931
G2 X17.9383 Y20.6054 I0.8564 J1.946
G2 X17.847 Y20.6546 I0.9043 J1.789
G2 X17.7443 Y20.7165 I1.332 J2.3278
G2 X17.6839 Y20.7557 I1.6381 J2.587
G2 X17.5674 Y20.8344 I6.4679 J9.7019
G0 Z0.15
G0 X11.4729 Y19.1127
G1 Z-0.5 F30
G1 X11.4729 Y19.1127 F60
G1 X11.4729 Y19.1127
G3 X11.507 Y19.1317 I-0.9858 J1.8074
G3 X11.5234 Y19.1415 I-0.2456 J0.4307
G3 X11.5496 Y19.1592 I-0.2229 J0.3579
G3 X11.5706 Y19.1761 I-0.1823 J0.2491
G3 X11.5992 Y19.2045 I-0.2058 J0.2351
G3 X11.656 Y19.273 I-1.1421 J1.0068
G1 X11.656 Y19.273
G1 X11.656 Y19.273
G0 Z0.15
G0 X12.0636 Y18.3755
G1 Z-0.5 F30
G1 X12.0636 Y18.3755 F60
G1 X12.0636 Y18.3755
G3 X12.1702 Y18.3846 I-0.1111 J1.9425
G3 X12.233 Y18.3946 I-0.0771 J0.685
G3 X12.2812 Y18.4061 I-0.1695 J0.8173
G3 X12.332 Y18.4213 I-0.2495 J0.9235
G3 X12.3849 Y18.4406 I-0.2996 J0.9063
G3 X12.4338 Y18.4618 I-0.3161 J0.7953
G3 X12.4819 Y18.4864 I-0.3532 J0.7492
G3 X12.5289 Y18.5145 I-0.4114 J0.7427
G3 X12.5726 Y18.5445 I-0.4556 J0.7103
G3 X12.6131 Y18.5763 I-0.4715 J0.6425
G3 X12.649 Y18.6083 I-0.5159 J0.6152
G3 X12.6833 Y18.6427 I-0.564 J0.5961
G3 X12.7122 Y18.6752 I-0.57 J0.5352
G3 X12.7352 Y18.7045 I-0.4395 J0.3689
G3 X12.7402 Y18.7114 I-0.3925 J0.2881
G3 X12.7489 Y18.7238 I-1.2603 J0.8918
G2 X12.7576 Y18.7362 I0.8197 J-0.568
G2 X12.7611 Y18.741 I0.1264 J-0.0904
G2 X12.7674 Y18.7482 I0.0735 J-0.057
G2 X12.7711 Y18.7514 I0.0177 J-0.0169
G2 X12.7758 Y18.7533 I0.0067 J-0.0096
G2 X12.7794 Y18.7528 I0.001 J-0.0059
G2 X12.7827 Y18.7502 I-0.004 J-0.0082
G2 X12.787 Y18.7429 I-0.0296 J-0.0227
G2 X12.7905 Y18.734 I-0.0723 J-0.0331
G2 X12.7962 Y18.7143 I-0.35 J-0.1118
G2 X12.7993 Y18.7018 I-0.6195 J-0.1604
G2 X12.8069 Y18.6689 I-4.2538 J-1.0102
G3 X12.8273 Y18.5847 I3.567 J0.8181
G3 X12.842 Y18.5312 I1.4582 J0.371
G3 X12.8685 Y18.4487 I1.6726 J0.4919
G3 X12.9 Y18.365 I1.75 J0.6107
G3 X12.9397 Y18.2745 I1.5268 J0.6169
G3 X12.9763 Y18.2046 I0.9488 J0.4513
G3 X13.0204 Y18.1358 I0.6994 J0.3996
G3 X13.0643 Y18.0814 I0.4795 J0.3428
G3 X13.1132 Y18.0341 I0.4003 J0.365
G3 X13.1679 Y17.9932 I0.3548 J0.4162
G3 X13.2259 Y17.9595 I0.3317 J0.5053
G3 X13.2885 Y17.9319 I0.2852 J0.5617
G3 X13.3529 Y17.9117 I0.2077 J0.5497
G3 X13.4091 Y17.9016 I0.1024 J0.4074
G3 X13.4594 Y17.8996 I0.0394 J0.3558
G3 X13.5134 Y17.9048 I-0.0126 J0.4158
G3 X13.5455 Y17.9111 I-0.0741 J0.4562
G3 X13.6066 Y17.9268 I-0.3953 J1.6753
G0 Z0.15
G0 X13.7944 Y18.1695
G1 Z-0.5 F30
G3 X13.8138 Y18.246 I-7.1191 J1.851 F60
G3 X13.8231 Y18.2851 I-1.8506 J0.46
G3 X13.8366 Y18.3507 I-1.6097 J0.3643
G3 X13.8455 Y18.4068 I-1.1717 J0.2156
G3 X13.8525 Y18.4725 I-1.1692 J0.158
G3 X13.8559 Y18.5391 I-1.2016 J0.0944
G3 X13.8554 Y18.6096 I-1.1814 J0.0272
G3 X13.8509 Y18.677 I-1.085 J-0.0398
G3 X13.8426 Y18.7408 I-1.0954 J-0.1087
G3 X13.8227 Y18.8546 I-3.506 J-0.5563
G2 X13.815 Y18.8956 I4.7088 J0.9051
G2 X13.8124 Y18.9108 I0.6436 J0.1179
G2 X13.8088 Y18.9463 I0.3038 J0.0483
G2 X13.8104 Y18.9577 I0.0317 J0.0013
G2 X13.8129 Y18.9614 I0.008 J-0.0027
G2 X13.8157 Y18.9622 I0.0022 J-0.0026
G2 X13.8187 Y18.9609 I-0.0011 J-0.0067
G2 X13.824 Y18.9559 I-0.0202 J-0.0268
G2 X13.8284 Y18.9502 I-0.0523 J-0.0445
G2 X13.8413 Y18.9306 I-0.595 J-0.4065
G3 X13.8697 Y18.8889 I0.6739 J0.429
G3 X13.8883 Y18.8662 I0.2176 J0.1587
G3 X13.9139 Y18.8415 I0.2064 J0.1881
G3 X13.9429 Y18.8198 I0.1876 J0.2208
G3 X13.9758 Y18.8013 I0.1538 J0.2351
G3 X14.0089 Y18.7884 I0.1069 J0.2243
G3 X14.0422 Y18.7805 I0.0745 J0.2397
G3 X14.0804 Y18.7764 I0.052 J0.3123
G3 X14.1138 Y18.7766 I0.0155 J0.3543
G3 X14.1501 Y18.78 I-0.0213 J0.4203
G3 X14.1794 Y18.785 I-0.0605 J0.4374
G3 X14.2127 Y18.793 I-0.1192 J0.5739
G3 X14.2324 Y18.7986 I-0.1737 J0.645
G3 X14.2706 Y18.8105 I-0.7317 J2.4178
G0 Z0.15
G0 X14.7056 Y19.3142
G1 Z-0.5 F30
G3 X14.6869 Y19.3368 I-0.6956 J-0.5565 F60
G3 X14.6762 Y19.3485 I-0.1993 J-0.1705
G3 X14.6569 Y19.3666 I-0.1846 J-0.1784
G3 X14.6354 Y19.3829 I-0.172 J-0.2044
G3 X14.6106 Y19.3982 I-0.1843 J-0.2703
G3 X14.5449 Y19.4334 I-1.0436 J-1.8683
G2 X14.5179 Y19.4474 I2.9929 J5.8261
G2 X14.5041 Y19.4546 I0.7852 J1.5112
G2 X14.4715 Y19.4724 I0.8871 J1.67
G2 X14.4335 Y19.4939 I1.2626 J2.2679
G2 X14.4053 Y19.5105 I1.424 J2.4597
G2 X14.379 Y19.5263 I1.2838 J2.1598
G2 X14.3673 Y19.5336 I0.4267 J0.6983
G2 X14.3624 Y19.5369 I0.0808 J0.1273
G2 X14.3562 Y19.5416 I0.0435 J0.063
G2 X14.3538 Y19.5442 I0.01 J0.0117
G2 X14.3537 Y19.5486 I0.0031 J0.0023
G2 X14.3608 Y19.5546 I0.014 J-0.0094
G2 X14.3765 Y19.5601 I0.039 J-0.0868
G2 X14.3972 Y19.5638 I0.0372 J-0.1474
G2 X14.4248 Y19.5641 I0.0155 J-0.1411
G2 X14.4499 Y19.5592 I-0.0104 J-0.121
G2 X14.4677 Y19.5524 I-0.0386 J-0.126
G2 X14.4915 Y19.5396 I-0.1131 J-0.239
G2 X14.5052 Y19.5309 I-0.1798 J-0.2971
G2 X14.5327 Y19.512 I-0.8218 J-1.2252
G3 X14.5516 Y19.4988 I1.1572 J1.6436
G3 X14.5606 Y19.4928 I0.2549 J0.371
G3 X14.5879 Y19.4766 I0.2085 J0.3197
G3 X14.6124 Y19.4648 I0.1341 J0.2486
G3 X14.6386 Y19.4553 I0.1066 J0.2534
G3 X14.6682 Y19.4477 I0.0968 J0.3164
G3 X14.6972 Y19.4428 I0.0862 J0.4157
G3 X14.7327 Y19.439 I0.0845 J0.6213
G3 X14.765 Y19.4372 I0.0533 J0.6802
G3 X14.7949 Y19.437 I0.018 J0.5828
G3 X14.8196 Y19.4382 I-0.01 J0.4803
G3 X14.8438 Y19.4406 I-0.0333 J0.4586
G3 X14.8584 Y19.4427 I-0.0578 J0.4596
G3 X14.8842 Y19.447 I-0.2288 J1.4456
G0 Z0.15
G0 X11.9766 Y20.0743
G1 Z-0.5 F30
G3 X12.2043 Y19.8375 I3471.5718 J3338.0349 F60
G3 X12.3068 Y19.7309 I703.4982 J676.5299
G3 X12.4756 Y19.5555 I443.7771 J426.8946
G3 X12.5581 Y19.4699 I105.7216 J101.7802
G3 X12.6124 Y19.4138 I10.2018 J9.8375
G3 X12.6333 Y19.3927 I1.4671 J1.4304
G3 X12.6644 Y19.3629 I0.8278 J0.8308
G3 X12.6825 Y19.3472 I0.2455 J0.2652
G3 X12.7178 Y19.3252 I0.1074 J0.1326
G3 X12.7566 Y19.3127 I0.0692 J0.1485
G3 X12.7979 Y19.3067 I0.0867 J0.4587
G3 X12.8632 Y19.3023 I0.1108 J1.136
G3 X12.9253 Y19.3011 I0.0566 J1.4154
G3 X12.9863 Y19.3027 I-0.0054 J1.3658
G3 X13.0447 Y19.3071 I-0.0541 J1.1113
G3 X13.0916 Y19.3134 I-0.0736 J0.7241
G3 X13.1373 Y19.3231 I-0.0925 J0.5508
G3 X13.1695 Y19.3333 I-0.0723 J0.2831
G3 X13.1872 Y19.341 I-0.0781 J0.2039
G3 X13.2161 Y19.3561 I-0.2704 J0.5538
G2 X13.2539 Y19.375 I0.2309 J-0.4156
G2 X13.2799 Y19.3845 I0.0828 J-0.1864
G2 X13.3136 Y19.3922 I0.0874 J-0.3012
G2 X13.3686 Y19.3999 I0.1386 J-0.7978
G2 X13.4164 Y19.4039 I0.1245 J-1.1983
G2 X13.4853 Y19.4073 I0.1588 J-2.4913
G2 X13.4972 Y19.4077 I0.1129 J-3.1305
G2 X13.5214 Y19.4085 I0.4234 J-13.1152
G3 X13.5971 Y19.4114 I-0.1322 J4.345
G3 X13.6326 Y19.4138 I-0.0459 J0.9578
G3 X13.6915 Y19.4214 I-0.0572 J0.6711
G3 X13.7266 Y19.4302 I-0.0428 J0.2446
G3 X13.7667 Y19.4507 I-0.0468 J0.1417
G3 X13.7931 Y19.478 I-0.0617 J0.0861
G3 X13.8095 Y19.5117 I-0.1141 J0.0761
G3 X13.8242 Y19.5736 I-0.376 J0.1222
G3 X13.8309 Y19.6306 I-0.7677 J0.1186
G3 X13.8362 Y19.7244 I-2.0711 J0.1645
G3 X13.8377 Y19.7952 I-2.972 J0.1012
G3 X13.8379 Y19.892 I-5.5511 J0.0568
G3 X13.8362 Y19.9978 I-5.9638 J-0.0434
G3 X13.831 Y20.1654 I-14.9678 J-0.3748
G1 X13.831 Y20.1654
G1 X13.831 Y20.1659
G0 Z0.15
G0 X12.2559 Y31.5766
G1 Z-0.5 F30
G1 X12.2559 Y31.5766 F60
G1 X12.2559 Y31.5765
G3 X12.2262 Y31.5334 I1.2404 J-0.886
G3 X12.2115 Y31.5097 I0.3612 J-0.2397
G3 X12.1907 Y31.4682 I0.3564 J-0.2047
G3 X12.175 Y31.4254 I0.3645 J-0.1578
G3 X12.1638 Y31.3811 I0.4784 J-0.1447
G3 X12.1519 Y31.3127 I1.1303 J-0.2318
G3 X12.1465 Y31.2712 I1.5588 J-0.223
G3 X12.1368 Y31.1828 I7.0996 J-0.8239
G0 Z0.15
G0 X12.5123 Y31.0912
G1 Z-0.5 F30
G1 X12.5123 Y31.0912 F60
G1 X12.5123 Y31.0912
G3 X12.387 Y31.121 I-2.728 J-11.1848
G3 X12.3233 Y31.1351 I-0.6691 J-2.8832
G3 X12.2164 Y31.155 I-0.5189 J-2.4832
G3 X12.1262 Y31.1675 I-0.289 J-1.7559
G3 X12.0354 Y31.1755 I-0.2098 J-1.866
G3 X11.9158 Y31.1809 I-0.2059 J-3.2418
G3 X11.8438 Y31.1821 I-0.1072 J-4.0395
G3 X11.6972 Y31.1828 I-0.1466 J-16.7769
G0 Z0.15
G0 X4.3893 Y28.0966
G1 Z-0.5 F30
G3 X4.4155 Y28.0849 I0.3073 J0.653 F60
G3 X4.4287 Y28.0799 I0.0687 J0.1625
G3 X4.4515 Y28.0743 I0.0458 J0.1384
G3 X4.4712 Y28.0731 I0.0164 J0.1023
G3 X4.5167 Y28.0851 I-0.0033 J0.1052
G3 X4.577 Y28.1286 I-0.122 J0.2327
G3 X4.6287 Y28.186 I-0.3793 J0.3935
G3 X4.723 Y28.3158 I-1.8555 J1.4465
G3 X4.776 Y28.3965 I-3.1237 J2.1096
G3 X4.893 Y28.5819 I-16.4099 J10.4809
G0 Z0.15
G0 X4.5175 Y28.0508
G1 Z-0.5 F30
G1 X4.3435 Y27.3639 F60
G0 Z0.15
G0 X13.1808 Y21.1091
G1 Z-0.5 F30
G3 X13.2481 Y21.0848 I5.6863 J15.6372 F60
G3 X13.2808 Y21.0732 I1.3275 J3.7001
G3 X13.3357 Y21.0547 I1.0192 J2.9219
G3 X13.3762 Y21.042 I0.5186 J1.5812
G3 X13.4234 Y21.0287 I0.3826 J1.2756
G3 X13.4642 Y21.0191 I0.2449 J0.9409
G3 X13.5075 Y21.0109 I0.1835 J0.8546
G3 X13.5487 Y21.0053 I0.1246 J0.7667
G3 X13.5941 Y21.0019 I0.0766 J0.7096
G3 X13.6366 Y21.0015 I0.0273 J0.6239
G3 X13.6838 Y21.0047 I-0.0129 J0.5284
G3 X13.7206 Y21.0111 I-0.0374 J0.327
G3 X13.7549 Y21.0213 I-0.065 J0.2809
G3 X13.7935 Y21.0379 I-0.1368 J0.3725
G3 X13.8211 Y21.0525 I-0.2209 J0.4483
G3 X13.8646 Y21.0786 I-0.6589 J1.1501
G3 X13.91 Y21.1081 I-0.8019 J1.2828
G3 X13.9406 Y21.13 I-0.4095 J0.6059
G3 X13.9819 Y21.1639 I-0.3728 J0.4947
G3 X14.0142 Y21.1962 I-0.3022 J0.3362
G3 X14.043 Y21.231 I-0.3504 J0.3184
G3 X14.0772 Y21.2803 I-0.6687 J0.5001
G3 X14.0961 Y21.311 I-0.8845 J0.5672
G3 X14.1332 Y21.3747 I-3.7801 J2.2449
G0 Z0.15
G0 X14.5545 Y22.8216
G1 Z-0.5 F30
G3 X14.5882 Y22.7821 I4.5258 J3.8295 F60
G3 X14.6054 Y22.7625 I1.1314 J0.9745
G3 X14.6349 Y22.7306 I0.9356 J0.8347
G3 X14.6598 Y22.7056 I0.5968 J0.5708
G3 X14.6887 Y22.6792 I0.5559 J0.5791
G3 X14.7201 Y22.6532 I0.5697 J0.6546
G3 X14.7519 Y22.6292 I0.5517 J0.6976
G3 X14.785 Y22.6064 I0.5284 J0.7334
G3 X14.8183 Y22.5856 I0.4993 J0.7621
G3 X14.8516 Y22.5668 I0.4425 J0.7435
G3 X14.8851 Y22.5498 I0.378 J0.7042
G3 X14.9148 Y22.5366 I0.2598 J0.5438
G3 X14.9415 Y22.5264 I0.1861 J0.4508
G3 X14.974 Y22.5161 I0.2263 J0.6544
G3 X14.9935 Y22.5107 I0.2226 J0.7633
G3 X15.0307 Y22.5011 I0.7323 J2.7708
G0 Z0.15
G0 X14.7926 Y22.611
G1 Z-0.5 F30
G2 X14.7856 Y22.5319 I-3.5237 J0.2708 F60
G2 X14.781 Y22.4942 I-0.8056 J0.0802
G2 X14.7686 Y22.4324 I-0.6083 J0.0895
G2 X14.7545 Y22.3898 I-0.3028 J0.0769
G2 X14.7338 Y22.3496 I-0.2562 J0.1061
G2 X14.7019 Y22.3051 I-0.3463 J0.2151
G2 X14.6793 Y22.2795 I-0.4003 J0.3306
G2 X14.6263 Y22.2249 I-1.8811 J1.7735
G2 X14.567 Y22.1659 I-14.2634 J14.263
G2 X14.5337 Y22.1331 I-4.4207 J4.4574
G2 X14.4765 Y22.078 I-3.9838 J4.077
G2 X14.4263 Y22.0311 I-2.9398 J3.0937
G2 X14.372 Y21.9819 I-3.0208 J3.2832
G2 X14.3065 Y21.9244 I-4.2021 J4.7204
G2 X14.2494 Y21.8755 I-4.8473 J5.5988
G2 X14.1821 Y21.8189 I-6.5525 J7.7255
G2 X14.1039 Y21.7555 I-2.419 J2.9027
G2 X14.0591 Y21.7218 I-0.7255 J0.9194
G2 X13.9892 Y21.6766 I-0.533 J0.7462
G2 X13.9303 Y21.6464 I-0.293 J0.5008
G2 X13.8665 Y21.6228 I-0.2306 J0.5231
G2 X13.787 Y21.6027 I-0.2426 J0.795
G2 X13.7226 Y21.5919 I-0.208 J1.0395
G2 X13.6265 Y21.5808 I-0.3152 J2.3048
G2 X13.5444 Y21.5739 I-0.3441 J3.6354
G2 X13.4487 Y21.568 I-0.3551 J4.937
G2 X13.3596 Y21.564 I-0.2996 J5.7083
G2 X13.2572 Y21.5609 I-0.2781 J7.5475
G2 X13.1413 Y21.5593 I-0.1391 J5.9856
G2 X13.0603 Y21.5602 I-0.0113 J2.9279
G2 X12.9552 Y21.5652 I0.0514 J2.1595
G2 X12.8817 Y21.5731 I0.0774 J1.0652
G2 X12.8014 Y21.5888 I0.1126 J0.7887
G2 X12.7487 Y21.6063 I0.0887 J0.3553
G2 X12.7022 Y21.6341 I0.0737 J0.1761
G2 X12.6879 Y21.6556 I0.0271 J0.0334
G2 X12.6874 Y21.6722 I0.0321 J0.0093
G2 X12.697 Y21.6962 I0.079 J-0.0177
G2 X12.7063 Y21.7098 I0.1172 J-0.0704
G2 X12.7312 Y21.7401 I0.6125 J-0.4768
G3 X12.7531 Y21.7664 I-0.7459 J0.6437
G3 X12.7627 Y21.7792 I-0.1687 J0.1357
G3 X12.7816 Y21.8127 I-0.1807 J0.1245
G3 X12.7896 Y21.8384 I-0.0973 J0.0443
G3 X12.7902 Y21.8493 I-0.0426 J0.0076
G3 X12.7885 Y21.853 I-0.0061 J-0.0005
G3 X12.785 Y21.8539 I-0.0024 J-0.0023
G3 X12.7771 Y21.8493 I0.0069 J-0.0209
G3 X12.771 Y21.8429 I0.0436 J-0.0479
G3 X12.7581 Y21.8265 I0.273 J-0.2282
G3 X12.7506 Y21.8161 I0.5044 J-0.3739
G3 X12.7318 Y21.7894 I3.3029 J-2.3449
G2 X12.6751 Y21.7116 I-1.936 J1.3511
G2 X12.6451 Y21.6755 I-0.4457 J0.3389
G2 X12.6045 Y21.6352 I-0.3742 J0.3375
G2 X12.5583 Y21.5988 I-0.3523 J0.399
G2 X12.5214 Y21.5749 I-0.331 J0.4708
G2 X12.4725 Y21.5478 I-0.4766 J0.8015
G2 X12.4165 Y21.5208 I-0.511 J0.9902
G2 X12.3108 Y21.4754 I-1.5618 J3.4909
G1 X12.3108 Y21.4754
G1 X12.3108 Y21.4754
G0 Z0.15
G0 X12.697 Y23.2949
G1 Z-0.5 F30
G2 X12.7334 Y23.3368 I18.6671 J-16.1214 F60
G2 X12.7583 Y23.3655 I8.7378 J-7.5806
G2 X12.8035 Y23.4169 I7.8534 J-6.8586
G2 X12.839 Y23.4567 I4.7516 J-4.205
G2 X12.88 Y23.5018 I4.0303 J-3.6274
G2 X12.9187 Y23.5433 I3.4523 J-3.1782
G2 X12.9572 Y23.5836 I3.0928 J-2.9171
G2 X12.9916 Y23.6185 I2.3565 J-2.2818
G2 X13.0325 Y23.6582 I1.2259 J-1.223
G2 X13.0601 Y23.6828 I0.4966 J-0.5291
G2 X13.0984 Y23.7123 I0.3359 J-0.3966
G2 X13.1275 Y23.7299 I0.1464 J-0.2096
G2 X13.157 Y23.7427 I0.1076 J-0.2083
G2 X13.1944 Y23.7535 I0.1134 J-0.3213
G2 X13.2183 Y23.7583 I0.0976 J-0.4261
G2 X13.2737 Y23.767 I0.3885 J-2.2727
G3 X13.2779 Y23.7676 I-5.6625 J38.7799
G3 X13.28 Y23.768 I-1.4558 J9.9624
G3 X13.2825 Y23.7683 I-1.4787 J10.1027
G3 X13.2874 Y23.769 I-6.1131 J41.6963
G2 X13.3525 Y23.778 I0.5818 J-3.9654
G2 X13.3881 Y23.7821 I0.154 J-1.1848
G2 X13.4494 Y23.7864 I0.0997 J-1.0011
G2 X13.4968 Y23.7863 I0.0229 J-0.5986
G2 X13.5487 Y23.7818 I-0.0232 J-0.5667
G2 X13.604 Y23.772 I-0.0873 J-0.653
G2 X13.6501 Y23.7601 I-0.1501 J-0.6773
G2 X13.6952 Y23.7451 I-0.1953 J-0.6619
G2 X13.7358 Y23.728 I-0.1828 J-0.4921
G2 X13.7639 Y23.7127 I-0.1184 J-0.2517
G2 X13.7915 Y23.6926 I-0.1209 J-0.1951
G2 X13.8146 Y23.6698 I-0.1342 J-0.1582
G2 X13.8343 Y23.6431 I-0.1714 J-0.1474
G2 X13.8541 Y23.6072 I-0.2912 J-0.1839
G2 X13.8691 Y23.5697 I-0.2826 J-0.1345
G2 X13.8746 Y23.5444 I-0.1214 J-0.0396
G2 X13.8734 Y23.5219 I-0.0677 J-0.0077
G2 X13.8652 Y23.5024 I-0.0586 J0.0131
G2 X13.8549 Y23.4898 I-0.0619 J0.0401
G2 X13.8356 Y23.4734 I-0.1242 J0.1267
G2 X13.8193 Y23.4622 I-0.2029 J0.2765
G2 X13.7988 Y23.4496 I-0.2733 J0.4215
G2 X13.7813 Y23.4398 I-0.2971 J0.5101
G2 X13.7609 Y23.4292 I-0.3678 J0.6839
G2 X13.7559 Y23.4267 I-0.3631 J0.726
G2 X13.7463 Y23.422 I-1.3135 J2.6719
G3 X13.7114 Y23.4037 I0.2994 J-0.6145
G3 X13.6937 Y23.3925 I0.0942 J-0.168
G3 X13.6771 Y23.3793 I0.1157 J-0.1622
G3 X13.6592 Y23.3618 I0.1835 J-0.2065
G3 X13.6412 Y23.3406 I0.193 J-0.1811
G3 X13.6281 Y23.3208 I0.1536 J-0.1164
G3 X13.6177 Y23.3004 I0.1767 J-0.1025
G3 X13.608 Y23.275 I0.2626 J-0.1151
G3 X13.6021 Y23.2549 I0.3234 J-0.1066
G3 X13.596 Y23.2293 I0.518 J-0.136
G3 X13.5954 Y23.2265 I0.6244 J-0.1317
G3 X13.5943 Y23.2211 I2.3746 J-0.4898
G2 X13.5887 Y23.1969 I-0.4291 J0.0875
G2 X13.5852 Y23.1865 I-0.0829 J0.0219
G2 X13.5765 Y23.1714 I-0.061 J0.0248
G2 X13.5654 Y23.1606 I-0.0416 J0.0317
G2 X13.5488 Y23.1518 I-0.0399 J0.0557
G2 X13.5193 Y23.1439 I-0.0615 J0.1705
G2 X13.4907 Y23.1402 I-0.0536 J0.2983
G2 X13.4433 Y23.1376 I-0.0681 J0.8214
G2 X13.3974 Y23.1372 I-0.0336 J1.3411
G2 X13.3409 Y23.1385 I0.0187 J2.0383
G2 X13.2844 Y23.1414 I0.0763 J2.0636
G2 X13.2374 Y23.1452 I0.0924 J1.4349
G2 X13.1913 Y23.1508 I0.0993 J1.0193
G2 X13.1576 Y23.1567 I0.0789 J0.5499
G2 X13.1256 Y23.1647 I0.0818 J0.3954
G2 X13.103 Y23.1727 I0.06 J0.2041
G2 X13.0892 Y23.1793 I0.0649 J0.1541
G2 X13.0688 Y23.1909 I0.1851 J0.3467
G3 X13.051 Y23.2007 I-0.1101 J-0.1795
G3 X13.0435 Y23.2033 I-0.0137 J-0.0281
G3 X13.033 Y23.2035 I-0.006 J-0.0293
G3 X13.0213 Y23.1999 I0.0062 J-0.0405
G3 X13.0118 Y23.1939 I0.0229 J-0.047
G3 X13.0023 Y23.185 I0.0441 J-0.0561
G3 X12.9977 Y23.1791 I0.0538 J-0.0472
G3 X12.9892 Y23.1664 I0.24 J-0.1697
G2 X12.9787 Y23.1508 I-0.2545 J0.1609
G2 X12.9717 Y23.1422 I-0.0849 J0.0614
G2 X12.9604 Y23.1311 I-0.0914 J0.0821
G2 X12.945 Y23.1193 I-0.1194 J0.139
G2 X12.9276 Y23.1084 I-0.1308 J0.1896
G2 X12.9046 Y23.0964 I-0.1825 J0.3226
G2 X12.8795 Y23.0853 I-0.2063 J0.4329
G2 X12.8508 Y23.0744 I-0.229 J0.561
G2 X12.8203 Y23.0647 I-0.1908 J0.5449
G2 X12.7947 Y23.0582 I-0.1093 J0.3781
G2 X12.7669 Y23.0538 I-0.0548 J0.2515
G2 X12.7474 Y23.0533 I-0.0128 J0.1218
G2 X12.7265 Y23.0568 I0.0051 J0.0927
G2 X12.7092 Y23.0644 I0.0206 J0.0707
G2 X12.6933 Y23.0768 I0.0421 J0.07
G2 X12.6792 Y23.0946 I0.0736 J0.0733
G2 X12.6686 Y23.1157 I0.0977 J0.0618
G2 X12.6619 Y23.1407 I0.1293 J0.0485
G2 X12.6594 Y23.1759 I0.1719 J0.0298
G2 X12.6649 Y23.2399 I0.579 J-0.0179
G1 X12.6649 Y23.2399
G1 X12.6649 Y23.2399
G1 X12.6649 Y23.2399
G1 X12.6649 Y23.2399
G2 X12.6682 Y23.2556 I0.1245 J-0.0178
G2 X12.6712 Y23.2628 I0.0291 J-0.008
G2 X12.6757 Y23.2693 I0.0462 J-0.027
G2 X12.697 Y23.2949 I0.7352 J-0.5909
G0 Z0.15
G0 X14.092 Y26.0864
G1 Z-0.5 F30
G2 X14.1203 Y26.0462 I-3.1131 J-2.2237 F60
G2 X14.1403 Y26.017 I-1.6222 J-1.1275
G2 X14.1747 Y25.9636 I-1.6059 J-1.0741
G2 X14.2034 Y25.9155 I-1.2704 J-0.7904
G2 X14.2337 Y25.8599 I-1.2859 J-0.7349
G2 X14.2656 Y25.7951 I-1.7121 J-0.8836
G2 X14.294 Y25.732 I-2.0114 J-0.9444
G2 X14.3251 Y25.6574 I-2.7791 J-1.2006
G2 X14.3564 Y25.5759 I-2.8499 J-1.1419
G2 X14.3831 Y25.4996 I-2.4662 J-0.9076
G2 X14.4112 Y25.4093 I-2.2332 J-0.7448
G2 X14.4324 Y25.3294 I-1.7208 J-0.498
G2 X14.4501 Y25.2471 I-1.7278 J-0.4148
G2 X14.4648 Y25.1591 I-1.9564 J-0.3725
G2 X14.4748 Y25.0789 I-2.0119 J-0.2904
G2 X14.4812 Y25.0013 I-1.8831 J-0.1959
G2 X14.4843 Y24.9167 I-1.6058 J-0.1005
G2 X14.4834 Y24.7779 I-4.3206 J-0.0427
G3 X14.483 Y24.7569 I24.7061 J-0.5494
G3 X14.4828 Y24.7464 I6.1078 J-0.1306
G3 X14.4823 Y24.721 I6.0626 J-0.1192
G3 X14.4816 Y24.6711 I23.5907 J-0.3653
G2 X14.4797 Y24.5695 I-10.6278 J0.142
G2 X14.4782 Y24.522 I-2.3164 J0.0531
G2 X14.4743 Y24.4616 I-1.5129 J0.0657
G2 X14.4698 Y24.4217 I-0.6665 J0.0557
G2 X14.4599 Y24.3715 I-0.5052 J0.073
G2 X14.4477 Y24.3328 I-0.311 J0.0774
G2 X14.4298 Y24.2948 I-0.2819 J0.1095
G2 X14.4053 Y24.257 I-0.3024 J0.1689
G2 X14.3794 Y24.2257 I-0.306 J0.2275
G2 X14.347 Y24.1939 I-0.3493 J0.3229
G2 X14.3146 Y24.1672 I-0.3439 J0.385
G2 X14.2789 Y24.1423 I-0.3351 J0.4427
G2 X14.2431 Y24.1212 I-0.3096 J0.4837
G2 X14.205 Y24.1023 I-0.2886 J0.5318
G2 X14.1626 Y24.0853 I-0.2083 J0.4579
G2 X14.1279 Y24.0753 I-0.1033 J0.2959
G2 X14.0858 Y24.0693 I-0.059 J0.263
G2 X14.0462 Y24.0702 I-0.0146 J0.2323
G2 X14.0058 Y24.0779 I0.0275 J0.2545
G2 X13.959 Y24.0942 I0.0984 J0.3574
G2 X13.9169 Y24.1149 I0.1733 J0.4073
G2 X13.8707 Y24.1434 I0.2886 J0.5179
G2 X13.8292 Y24.1743 I0.3722 J0.544
G2 X13.786 Y24.2118 I0.5065 J0.6283
G2 X13.7468 Y24.2505 I0.6106 J0.6562
G2 X13.7058 Y24.2961 I0.8015 J0.7616
G2 X13.6653 Y24.3469 I0.8166 J0.6941
G2 X13.6307 Y24.3963 I0.737 J0.5531
G2 X13.5949 Y24.4558 I0.769 J0.502
G2 X13.5624 Y24.5205 I0.8758 J0.4816
G2 X13.5328 Y24.5909 I1.0503 J0.482
G2 X13.5036 Y24.6746 I1.4548 J0.5545
G2 X13.4792 Y24.7592 I1.6185 J0.5134
G2 X13.4586 Y24.8471 I1.73 J0.4516
G2 X13.4429 Y24.9334 I1.7139 J0.3561
G2 X13.4302 Y25.0293 I2.1067 J0.3286
G2 X13.4218 Y25.1201 I2.575 J0.2827
G2 X13.4143 Y25.2424 I4.6754 J0.3474
G2 X13.4094 Y25.3825 I5.4484 J0.2618
G2 X13.4086 Y25.4985 I3.729 J0.0832
G2 X13.4137 Y25.6445 I2.8069 J-0.0247
G2 X13.4235 Y25.7431 I1.2892 J-0.0785
G2 X13.4426 Y25.8416 I0.9204 J-0.1275
G2 X13.4682 Y25.9213 I0.6273 J-0.1573
G2 X13.4972 Y25.9836 I0.5348 J-0.2106
G2 X13.5334 Y26.0423 I0.5092 J-0.2748
G2 X13.5687 Y26.0876 I0.4968 J-0.3502
G2 X13.6075 Y26.1287 I0.4471 J-0.3831
G2 X13.6431 Y26.1603 I0.4245 J-0.4411
G2 X13.6861 Y26.1933 I0.5041 J-0.6128
G2 X13.7287 Y26.2218 I0.4951 J-0.6933
G2 X13.7664 Y26.2437 I0.3272 J-0.522
G2 X13.8088 Y26.2637 I0.2341 J-0.4398
G2 X13.8433 Y26.2757 I0.116 J-0.2782
G2 X13.8815 Y26.2829 I0.0604 J-0.215
G2 X13.912 Y26.2826 I0.0135 J-0.1358
G2 X13.9431 Y26.2742 I-0.0145 J-0.1167
G2 X13.9714 Y26.2575 I-0.0475 J-0.1126
G2 X13.9931 Y26.2368 I-0.1016 J-0.1284
G2 X14.0206 Y26.2012 I-0.2776 J-0.2426
G2 X14.0342 Y26.18 I-0.3834 J-0.2601
G2 X14.0538 Y26.146 I-0.9707 J-0.5843
G1 X14.0539 Y26.1458
G1 X14.0539 Y26.1458
G3 X14.07 Y26.119 I0.4351 J0.2417
G3 X14.092 Y26.0864 I0.6586 J0.4222
G0 Z0.15
G0 X14.0874 Y26.2558
G1 Z-0.5 F30
G1 X14.0874 Y26.2558 F60
G1 X14.0874 Y26.2558
G3 X14.1716 Y26.3129 I-1.1251 J1.7501
G3 X14.2157 Y26.3475 I-0.3678 J0.515
G3 X14.2501 Y26.3793 I-0.3975 J0.4636
G3 X14.2792 Y26.411 I-0.3642 J0.364
G3 X14.3106 Y26.4521 I-0.3948 J0.3336
G3 X14.3393 Y26.4985 I-0.476 J0.3268
G3 X14.363 Y26.545 I-0.6337 J0.3519
G3 X14.3925 Y26.613 I-1.3312 J0.6186
G3 X14.4103 Y26.6586 I-1.7604 J0.7122
G3 X14.4355 Y26.7276 I-4.0179 J1.5065
G3 X14.4407 Y26.7422 I-7.5146 J2.6717
G3 X14.45 Y26.7686 I-24.4102 J8.6252
G2 X14.4802 Y26.8519 I4.5549 J-1.6039
G2 X14.495 Y26.8893 I0.9364 J-0.3492
G2 X14.5086 Y26.9206 I1.0945 J-0.4591
G2 X14.5276 Y26.9612 I1.8662 J-0.8467
G2 X14.5394 Y26.9854 I2.29 J-1.1001
G2 X14.5636 Y27.0343 I9.3394 J-4.6089
G0 Z0.15
G0 X13.9775 Y26.3016
G1 Z-0.5 F30
G2 X13.9716 Y26.3871 I19.6054 J1.4008 F60
G2 X13.9689 Y26.4297 I4.8709 J0.3267
G2 X13.9654 Y26.5007 I4.0136 J0.2339
G2 X13.9638 Y26.5566 I2.4932 J0.1012
G2 X13.9634 Y26.5923 I2.301 J0.0417
G2 X13.9635 Y26.6642 I9.339 J0.0242
G3 X13.9634 Y26.7645 I-7.6933 J0.0393
G3 X13.9623 Y26.8206 I-2.4038 J-0.0191
G3 X13.9597 Y26.8807 I-2.7661 J-0.0865
G3 X13.9525 Y27.0043 I-11.7097 J-0.6211
G2 X13.9484 Y27.0727 I13.7334 J0.8739
G2 X13.947 Y27.0985 I1.9472 J0.1142
G2 X13.9458 Y27.1432 I1.2866 J0.0582
G2 X13.9463 Y27.1706 I0.4804 J0.005
G2 X13.9475 Y27.187 I0.3029 J-0.0141
G2 X13.9501 Y27.2083 I0.5145 J-0.052
G0 Z0.15
G0 X13.7669 Y24.6441
G1 Z-0.5 F30
G1 X13.6479 Y24.5616 F60
G1 X13.6479 Y24.5616
G1 X13.6479 Y24.5616
G2 X13.6963 Y24.5916 I3.4251 J-5.4803
G2 X13.7184 Y24.6049 I0.6974 J-1.138
G2 X13.7564 Y24.6259 I0.4358 J-0.7431
G2 X13.7762 Y24.6349 I0.1003 J-0.1926
G2 X13.7983 Y24.6407 I0.0336 J-0.0843
G2 X13.8118 Y24.6395 I0.004 J-0.0314
G2 X13.8226 Y24.6339 I-0.0106 J-0.0337
G2 X13.8416 Y24.6167 I-0.0941 J-0.1233
G2 X13.8451 Y24.613 I-0.2691 J-0.2523
G2 X13.8527 Y24.6045 I-1.3982 J-1.2755
G3 X13.8773 Y24.5783 I0.6815 J0.6142
G3 X13.8918 Y24.5644 I0.2034 J0.1983
G3 X13.9191 Y24.5435 I0.1563 J0.1755
G3 X13.9425 Y24.5311 I0.0769 J0.1171
G3 X13.9727 Y24.5225 I0.0535 J0.1295
G3 X14.0153 Y24.5189 I0.0428 J0.2542
G3 X14.0413 Y24.5199 I0.0003 J0.3407
G3 X14.0936 Y24.5248 I-0.1043 J1.3762
G3 X14.1456 Y24.5316 I-0.1992 J1.7439
G3 X14.1717 Y24.5361 I-0.0638 J0.4411
G3 X14.2133 Y24.5475 I-0.0682 J0.3315
G3 X14.2417 Y24.5601 I-0.0569 J0.1659
G3 X14.2673 Y24.5774 I-0.0887 J0.1594
G3 X14.2952 Y24.6032 I-0.1738 J0.2162
G3 X14.3117 Y24.622 I-0.2393 J0.2259
G3 X14.3311 Y24.6475 I-0.4201 J0.34
G3 X14.3345 Y24.6523 I-0.4188 J0.2996
G3 X14.3402 Y24.6606 I-1.2738 J0.8896
G2 X14.3508 Y24.6753 I0.3683 J-0.2537
G2 X14.3547 Y24.6799 I0.0401 J-0.0301
G2 X14.3617 Y24.6851 I0.0184 J-0.0176
G2 X14.3673 Y24.6862 I0.0048 J-0.0097
G2 X14.3719 Y24.6852 I-0.0011 J-0.0161
G2 X14.3804 Y24.6813 I-0.0229 J-0.0613
G2 X14.3853 Y24.6784 I-0.0525 J-0.096
G2 X14.3971 Y24.671 I-0.3334 J-0.5399
G3 X14.4115 Y24.6619 I0.348 J0.537
G3 X14.4187 Y24.6578 I0.0788 J0.129
G3 X14.4392 Y24.6486 I0.0745 J0.1386
G3 X14.4812 Y24.6349 I0.2098 J0.5736
G1 X14.4812 Y24.6349
G1 X14.4812 Y24.6349
G0 Z0.15
G0 X10.284 Y25.1891
G1 Z-0.5 F30
G3 X10.2498 Y25.1529 I0.3906 J-0.4037 F60
G3 X10.2095 Y25.103 I0.7067 J-0.6114
G3 X10.174 Y25.0529 I0.8962 J-0.6737
G3 X10.1374 Y24.9952 I1.1526 J-0.7714
G3 X10.1039 Y24.9361 I1.1977 J-0.7188
G3 X10.0732 Y24.8754 I1.2321 J-0.6601
G3 X10.0446 Y24.811 I1.2557 J-0.5962
G3 X10.0196 Y24.7458 I1.2599 J-0.5216
G3 X9.9973 Y24.6775 I1.3164 J-0.4676
G3 X9.977 Y24.603 I1.5483 J-0.4618
G3 X9.9598 Y24.5259 I1.6994 J-0.4195
G3 X9.9447 Y24.4412 I2.0373 J-0.4065
G3 X9.9317 Y24.3427 I2.0085 J-0.3149
G3 X9.9246 Y24.2534 I1.642 J-0.1758
G3 X9.9226 Y24.1421 I1.6192 J-0.0849
G3 X9.9282 Y24.029 I1.6759 J0.0273
G3 X9.9428 Y23.9049 I1.8953 J0.1593
G3 X9.9673 Y23.7695 I2.2773 J0.3432
G3 X10.0012 Y23.6317 I2.2241 J0.4724
G3 X10.0396 Y23.5101 I1.7698 J0.4931
G3 X10.086 Y23.3939 I1.5202 J0.5398
G3 X10.1402 Y23.2842 I1.4113 J0.6282
G3 X10.1975 Y23.1872 I1.3958 J0.7589
G3 X10.2671 Y23.0857 I1.5982 J1.0219
G3 X10.3357 Y22.9972 I1.7507 J1.2866
G3 X10.4169 Y22.9024 I2.0889 J1.7078
G3 X10.4932 Y22.8207 I2.1476 J1.9281
G3 X10.5731 Y22.7415 I2.1001 J2.0378
G3 X10.6533 Y22.668 I1.8002 J1.8865
G3 X10.7197 Y22.6128 I1.0855 J1.2369
G3 X10.7937 Y22.5588 I0.7568 J0.9596
G3 X10.848 Y22.5264 I0.3256 J0.4832
G3 X10.9038 Y22.5019 I0.2003 J0.3807
G3 X10.9539 Y22.4886 I0.1042 J0.2922
G3 X10.9978 Y22.4841 I0.0525 J0.2967
G3 X11.0501 Y22.4859 I0.0121 J0.4231
G3 X11.0967 Y22.4924 I-0.0519 J0.5441
G3 X11.1501 Y22.5042 I-0.1333 J0.7273
G3 X11.1998 Y22.5187 I-0.2308 J0.8847
G3 X11.2639 Y22.5408 I-0.4834 J1.5001
G3 X11.3404 Y22.5722 I-0.4232 J1.1422
G3 X11.3967 Y22.6006 I-0.2903 J0.6455
G3 X11.4712 Y22.6492 I-0.3282 J0.5844
G3 X11.5386 Y22.7073 I-0.4026 J0.5355
G3 X11.6045 Y22.7806 I-0.5671 J0.5761
G3 X11.6742 Y22.878 I-0.9343 J0.7421
G3 X11.7337 Y22.9808 I-1.0841 J0.6961
G3 X11.7812 Y23.0842 I-1.0493 J0.5444
G3 X11.8161 Y23.1851 I-1.0086 J0.4055
G3 X11.8422 Y23.2934 I-1.1368 J0.3319
G3 X11.8569 Y23.3884 I-1.2806 J0.2462
G3 X11.8667 Y23.5025 I-1.8351 J0.2142
G3 X11.8697 Y23.6104 I-2.0912 J0.1135
G3 X11.8672 Y23.716 I-2.0004 J0.0053
G3 X11.8586 Y23.8262 I-1.9913 J-0.0999
G3 X11.8437 Y23.9374 I-2.0408 J-0.2163
G3 X11.8225 Y24.0498 I-2.1449 J-0.3468
G3 X11.7938 Y24.1687 I-2.4287 J-0.5251
G3 X11.7595 Y24.2853 I-2.5269 J-0.678
G3 X11.7186 Y24.4045 I-2.6761 J-0.8531
G3 X11.67 Y24.527 I-2.5733 J-0.9494
G3 X11.6203 Y24.6359 I-2.0841 J-0.8849
G3 X11.5594 Y24.7509 I-1.7879 J-0.8734
G3 X11.5003 Y24.8456 I-1.2675 J-0.7254
G3 X11.4328 Y24.9364 I-1.0834 J-0.7352
G3 X11.3601 Y25.018 I-0.9483 J-0.7711
G3 X11.2844 Y25.0893 I-0.8608 J-0.8384
G3 X11.2027 Y25.1539 I-0.7858 J-0.9105
G3 X11.1205 Y25.2084 I-0.7287 J-1.009
G3 X11.0348 Y25.2559 I-0.6384 J-1.0502
G3 X10.9502 Y25.2943 I-0.5131 J-1.0191
G3 X10.8761 Y25.3202 I-0.3062 J-0.7557
G3 X10.8068 Y25.3368 I-0.1854 J-0.6244
G3 X10.7435 Y25.3443 I-0.0928 J-0.5121
G3 X10.6895 Y25.3444 I-0.0286 J-0.5031
G3 X10.6304 Y25.3386 I0.0308 J-0.6102
G3 X10.5803 Y25.3293 I0.1068 J-0.7175
G3 X10.527 Y25.3157 I0.1833 J-0.8277
G3 X10.4817 Y25.3012 I0.2532 J-0.8711
G3 X10.435 Y25.2836 I0.3298 J-0.9466
G3 X10.3894 Y25.2633 I0.2766 J-0.6825
G3 X10.3567 Y25.2455 I0.1794 J-0.3687
G3 X10.32 Y25.2203 I0.1979 J-0.3274
G3 X10.284 Y25.1891 I0.2687 J-0.3462
G2 X10.2271 Y25.1909 I0.1184 J4.5385
G2 X10.1991 Y25.1923 I0.0426 J1.1011
G2 X10.1526 Y25.1966 I0.057 J0.8886
G2 X10.1171 Y25.2019 I0.0612 J0.5224
G2 X10.0783 Y25.2109 I0.086 J0.4598
G2 X10.0389 Y25.2236 I0.1354 J0.4897
G2 X10.0017 Y25.2387 I0.2018 J0.5505
G2 X9.9557 Y25.2607 I0.3851 J0.8626
G2 X9.9112 Y25.2847 I0.579 J1.1291
G2 X9.8607 Y25.3143 I0.8369 J1.4834
G2 X9.8106 Y25.346 I0.9327 J1.528
G2 X9.7634 Y25.3782 I0.9109 J1.3868
G2 X9.7176 Y25.4119 I0.8764 J1.2391
G2 X9.6749 Y25.4459 I0.8522 J1.114
G2 X9.6344 Y25.4808 I0.8753 J1.0561
G2 X9.5955 Y25.5171 I0.9098 J1.0147
G2 X9.5703 Y25.5422 I0.9549 J0.9847
G2 X9.5218 Y25.5924 I3.7672 J3.6884
G3 X9.4758 Y25.64 I-3.654 J-3.484
G3 X9.4536 Y25.6621 I-0.8108 J-0.7936
G3 X9.4225 Y25.691 I-0.7929 J-0.8202
G3 X9.3849 Y25.7237 I-1.0522 J-1.1727
G3 X9.3618 Y25.7428 I-1.1692 J-1.3892
G3 X9.3162 Y25.7796 I-4.4031 J-5.41
G0 Z0.15
G0 X11.798 Y23.2337
G1 Z-0.5 F30
G3 X11.7614 Y23.2642 I-29.2433 J-35.0912 F60
G3 X11.7436 Y23.279 I-6.8757 J-8.2681
G3 X11.714 Y23.3034 I-5.3199 J-6.4253
G3 X11.6927 Y23.3207 I-2.7153 J-3.3104
G3 X11.664 Y23.3435 I-1.226 J-1.5145
G3 X11.6496 Y23.3543 I-0.2885 J-0.3705
G3 X11.6293 Y23.3673 I-0.1283 J-0.1784
G3 X11.6224 Y23.3696 I-0.0097 J-0.0171
G3 X11.6189 Y23.369 I-0.0008 J-0.0056
G3 X11.6166 Y23.3664 I0.0025 J-0.0045
G3 X11.6159 Y23.364 I0.0102 J-0.0043
G3 X11.615 Y23.3563 I0.0982 J-0.0162
G2 X11.6131 Y23.3435 I-0.1152 J0.01
G2 X11.611 Y23.3366 I-0.0356 J0.0072
G2 X11.6039 Y23.3255 I-0.0354 J0.0149
G2 X11.5894 Y23.3131 I-0.06 J0.0551
G2 X11.5716 Y23.3033 I-0.0626 J0.093
G2 X11.5476 Y23.2948 I-0.0702 J0.1608
G2 X11.5221 Y23.2894 I-0.0605 J0.2215
G2 X11.4879 Y23.2856 I-0.0604 J0.3921
G2 X11.4535 Y23.2845 I-0.0344 J0.5192
G2 X11.4088 Y23.2857 I0.0001 J0.876
G2 X11.3574 Y23.2897 I0.0475 J0.9282
G2 X11.3107 Y23.2961 I0.083 J0.7759
G2 X11.2535 Y23.3082 I0.1206 J0.7157
G2 X11.2012 Y23.3238 I0.1551 J0.6137
G2 X11.1464 Y23.3457 I0.2108 J0.6076
G2 X11.088 Y23.3751 I0.325 J0.7168
G2 X11.0326 Y23.4088 I0.4259 J0.7636
G2 X10.9738 Y23.4505 I0.5935 J0.9
G2 X10.9201 Y23.4937 I0.7491 J0.9856
G2 X10.8604 Y23.547 I1.0825 J1.2708
G2 X10.8081 Y23.5981 I1.2813 J1.3658
G2 X10.754 Y23.655 I1.5397 J1.5179
G2 X10.7078 Y23.707 I1.6525 J1.5148
G2 X10.6593 Y23.7649 I2.001 J1.7231
G2 X10.6202 Y23.8142 I2.2956 J1.8651
G2 X10.5739 Y23.8748 I3.4328 J2.67
G2 X10.5263 Y23.9398 I2.7138 J2.0353
G2 X10.4945 Y23.986 I1.3399 J0.9561
G2 X10.4553 Y24.0487 I1.1498 J0.7627
G2 X10.4243 Y24.1053 I0.9082 J0.5347
G2 X10.3944 Y24.169 I0.9554 J0.4863
G2 X10.3678 Y24.237 I1.06 J0.4547
G2 X10.3457 Y24.3061 I1.0621 J0.378
G2 X10.3296 Y24.3709 I0.9156 J0.2608
G2 X10.3181 Y24.4396 I0.8315 J0.1749
G2 X10.3059 Y24.5595 I2.5229 J0.3179
G3 X10.3034 Y24.59 I-7.4425 J-0.5814
G3 X10.3022 Y24.6044 I-1.6666 J-0.1371
G3 X10.2958 Y24.6602 I-1.1839 J-0.1077
G3 X10.2898 Y24.6937 I-0.4334 J-0.0602
G3 X10.278 Y24.7325 I-0.2468 J-0.0541
G3 X10.2672 Y24.751 I-0.0658 J-0.026
G3 X10.2513 Y24.7633 I-0.0346 J-0.028
G3 X10.2317 Y24.7675 I-0.0188 J-0.0404
G3 X10.214 Y24.7645 I0.0012 J-0.0611
G3 X10.1931 Y24.755 I0.0313 J-0.0963
G3 X10.18 Y24.7454 I0.0495 J-0.0823
G3 X10.1529 Y24.7203 I0.3244 J-0.3767
G2 X10.1331 Y24.7012 I-0.6192 J0.6194
G2 X10.1221 Y24.6914 I-0.1714 J0.1825
G2 X10.1028 Y24.6765 I-0.2059 J0.2469
G2 X10.0769 Y24.6592 I-0.3048 J0.4275
G2 X10.0557 Y24.6465 I-0.3238 J0.5165
G2 X10.0351 Y24.6353 I-0.2726 J0.4768
G2 X10.0116 Y24.6249 I-0.0977 J0.1891
G2 X9.9847 Y24.6166 I-0.0883 J0.2377
G1 X9.9847 Y24.6166
G1 X9.9847 Y24.6166
G1 X9.9847 Y24.6166
G1 X9.9847 Y24.6166
G2 X9.9372 Y24.5991 I-1.6117 J4.2978
G2 X9.9137 Y24.5908 I-0.3788 J1.045
G2 X9.8735 Y24.5784 I-0.2622 J0.7774
G2 X9.8474 Y24.5722 I-0.0904 J0.3215
G2 X9.8171 Y24.5685 I-0.0417 J0.2125
G2 X9.7894 Y24.5692 I-0.0094 J0.1788
G2 X9.7614 Y24.5743 I0.0185 J0.1801
G2 X9.7313 Y24.5846 I0.0581 J0.2187
G2 X9.7021 Y24.5989 I0.1164 J0.2753
G2 X9.627 Y24.6428 I1.0396 J1.8623
G3 X9.5997 Y24.6595 I-4.9869 J-8.1351
G3 X9.5848 Y24.6685 I-1.4738 J-2.4223
G3 X9.566 Y24.6797 I-1.5546 J-2.591
G3 X9.5246 Y24.704 I-7.3521 J-12.4573
G2 X9.4254 Y24.7631 I3.903 J6.6636
G2 X9.3742 Y24.7952 I1.0929 J1.8035
G2 X9.3201 Y24.8313 I1.1328 J1.7541
G2 X9.2668 Y24.8694 I1.2019 J1.7396
G2 X9.2152 Y24.9087 I1.2563 J1.703
G2 X9.1651 Y24.9493 I1.2949 J1.6472
G2 X9.1278 Y24.9813 I1.3608 J1.6254
G2 X9.0601 Y25.0415 I4.7519 J5.4158
G3 X9.0164 Y25.0805 I-4.351 J-4.8349
G3 X9.0003 Y25.0943 I-0.5649 J-0.6392
G3 X8.9743 Y25.1149 I-0.3539 J-0.4211
G3 X8.9574 Y25.1262 I-0.1234 J-0.1663
G3 X8.9466 Y25.132 I-0.0685 J-0.1141
G3 X8.9316 Y25.1386 I-0.1049 J-0.2178
G0 Z0.15
G0 X10.058 Y24.9737
G1 Z-0.5 F30
G1 X10.058 Y24.9737 F60
G1 X10.058 Y24.9737
G2 X9.9908 Y24.9628 I-0.3383 J1.8605
G2 X9.9527 Y24.9585 I-0.086 J0.594
G2 X9.9201 Y24.9568 I-0.0452 J0.5638
G2 X9.8924 Y24.9571 I-0.0091 J0.4091
G2 X9.8586 Y24.9603 I0.0168 J0.3691
G2 X9.8275 Y24.9661 I0.0437 J0.3156
G2 X9.7978 Y24.9747 I0.08 J0.3316
G2 X9.7596 Y24.9892 I0.1922 J0.566
G2 X9.7334 Y25.0007 I0.308 J0.7371
G2 X9.6871 Y25.0226 I1.0763 J2.3374
G2 X9.6396 Y25.0461 I1.3555 J2.7957
G2 X9.6087 Y25.0623 I0.6088 J1.203
G2 X9.5645 Y25.0874 I0.5528 J1.0255
G2 X9.5268 Y25.1111 I0.4566 J0.7651
G2 X9.4832 Y25.1422 I0.4808 J0.7212
G2 X9.3832 Y25.2203 I2.9501 J3.8827
G3 X9.3571 Y25.2412 I-17.8667 J-22.286
G3 X9.3431 Y25.2523 I-5.1106 J-6.39
G3 X9.2938 Y25.2913 I-6.0028 J-7.5392
G3 X9.2184 Y25.3503 I-13.7945 J-17.5593
G3 X9.1732 Y25.3854 I-18.5218 J-23.7859
G3 X9.0781 Y25.4591 I-81.4949 J-105.0677
G0 Z0.15
G0 X9.3895 Y19.7538
G1 Z-0.5 F30
G1 X9.3895 Y19.7538 F60
G1 X9.3895 Y19.7538
G3 X9.3983 Y19.8607 I-17.9413 J1.5378
G3 X9.4021 Y19.9119 I-4.093 J0.3263
G3 X9.4066 Y19.9971 I-3.1064 J0.2086
G3 X9.4078 Y20.0561 I-1.4831 J0.0588
G3 X9.4057 Y20.1233 I-1.0813 J-0.0001
G3 X9.4001 Y20.1785 I-0.7345 J-0.0458
G3 X9.3899 Y20.235 I-0.685 J-0.095
G3 X9.3742 Y20.2941 I-0.7672 J-0.1721
G3 X9.3548 Y20.3507 I-0.9251 J-0.2847
G3 X9.3273 Y20.4187 I-1.3606 J-0.5127
G3 X9.2991 Y20.4801 I-1.5786 J-0.6877
G3 X9.2643 Y20.549 I-2.0196 J-0.9758
G3 X9.2314 Y20.6095 I-2.2324 J-1.175
G3 X9.1922 Y20.6774 I-2.8567 J-1.6046
G3 X9.1579 Y20.734 I-3.1837 J-1.8899
G3 X9.1178 Y20.7978 I-4.0767 J-2.5197
G3 X9.0729 Y20.8652 I-1.8871 J-1.2078
G3 X9.035 Y20.9174 I-1.1702 J-0.81
G3 X8.9779 Y20.9887 I-1.5544 J-1.1836
G3 X8.8858 Y21.0954 I-3.5632 J-2.9864
G3 X8.7927 Y21.1981 I-6.1554 J-5.485
G3 X8.6275 Y21.3756 I-18.5359 J-17.085
G3 X8.5112 Y21.4988 I-27.1746 J-25.5353
G3 X8.3302 Y21.6891 I-65.0506 J-61.6853
G3 X8.179 Y21.8474 I-79.5226 J-75.8525
G3 X8.0713 Y21.9595 I-40.032 J-38.337
G3 X7.9489 Y22.086 I-31.8401 J-30.6636
G3 X7.8433 Y22.1943 I-23.4314 J-22.7462
G3 X7.7245 Y22.3149 I-20.5194 J-20.1049
G3 X7.6229 Y22.4166 I-14.7035 J-14.5773
G3 X7.5081 Y22.5298 I-12.5584 J-12.6246
G3 X7.4083 Y22.6263 I-9.2108 J-9.4287
G3 X7.2668 Y22.7594 I-8.1272 J-8.4966
G3 X6.9993 Y23.0047 I-27.8795 J-30.1278
G1 X6.9993 Y23.0048
G1 X6.9993 Y23.0048
G0 Z0.15
G0 X8.0066 Y21.393
G1 Z-0.5 F30
G1 X8.0066 Y21.393 F60
G1 X8.0066 Y21.393
G3 X7.9299 Y21.4904 I-12.6827 J-9.9084
G3 X7.8906 Y21.5392 I-3.2174 J-2.5538
G3 X7.8233 Y21.6189 I-2.705 J-2.2151
G3 X7.7655 Y21.683 I-1.8056 J-1.5709
G3 X7.6883 Y21.7617 I-1.7276 J-1.6161
G3 X7.5252 Y21.917 I-6.8982 J-7.0835
G2 X7.497 Y21.9433 I36.7735 J39.5247
G2 X7.4831 Y21.9562 I8.9493 J9.6051
G2 X7.4405 Y21.9962 I8.7727 J9.3883
G2 X7.3593 Y22.073 I32.2722 J34.2235
G3 X7.2659 Y22.1612 I-25.2348 J-26.6335
G3 X7.2206 Y22.2035 I-5.8583 J-6.2265
G3 X7.1549 Y22.2637 I-5.3922 J-5.8151
G3 X7.0957 Y22.3167 I-4.2443 J-4.6816
G3 X7.0315 Y22.3726 I-3.7748 J-4.2705
G3 X6.9724 Y22.4225 I-3.0584 J-3.566
G3 X6.8897 Y22.4894 I-2.8383 J-3.4217
G3 X6.7337 Y22.611 I-9.54 J-12.0775
G1 X6.7337 Y22.611
G1 X6.7337 Y22.611
G0 Z0.15
G0 X9.7924 Y20.349
G1 Z-0.5 F30
G3 X9.7769 Y20.4315 I-13.7035 J-2.5377 F60
G3 X9.7685 Y20.4737 I-3.6015 J-0.6894
G3 X9.7535 Y20.5438 I-3.1512 J-0.6416
G3 X9.739 Y20.6039 I-2.3366 J-0.5303
G3 X9.7174 Y20.6817 I-1.7507 J-0.4451
G3 X9.6949 Y20.7497 I-1.3649 J-0.4127
G3 X9.6612 Y20.8358 I-1.491 J-0.534
G3 X9.6154 Y20.9366 I-2.0945 J-0.8911
G3 X9.5661 Y21.0341 I-2.8445 J-1.3774
G3 X9.4841 Y21.1854 I-6.9339 J-3.6586
G3 X9.4246 Y21.2911 I-10.0337 J-5.5791
G3 X9.3162 Y21.48 I-32.1471 J-18.3223
G3 X9.199 Y21.6805 I-20.8515 J-12.0476
G3 X9.1317 Y21.7924 I-6.5518 J-3.8703
G3 X9.0232 Y21.9625 I-5 J-3.0704
G3 X8.9392 Y22.0829 I-2.59 J-1.7158
G3 X8.8509 Y22.1969 I-2.1717 J-1.5913
G3 X8.745 Y22.3202 I-2.6479 J-2.1674
G3 X8.6774 Y22.3933 I-2.945 J-2.6538
G3 X8.5345 Y22.5423 I-12.3611 J-11.7147
G2 X8.5286 Y22.5484 I331.9683 J322.3346
G2 X8.5256 Y22.5515 I83.6926 J81.2608
G2 X8.4841 Y22.5942 I85.795 J83.296
G2 X8.3973 Y22.6838 I376.2376 J364.9148
G3 X8.1581 Y22.9301 I-146.005 J-141.5436
G3 X8.0494 Y23.0414 I-29.9369 J-29.1204
G3 X7.9797 Y23.1123 I-26.2016 J-25.6776
G3 X7.8551 Y23.2386 I-83.2067 J-81.9859
G2 X7.7215 Y23.374 I58.857 J58.1698
G2 X7.6601 Y23.4367 I12.5512 J12.3478
G2 X7.5658 Y23.5346 I9.9061 J9.6487
G2 X7.498 Y23.6066 I5.3013 J5.063
G2 X7.4187 Y23.6937 I4.0692 J3.7826
G2 X7.361 Y23.7603 I2.3253 J2.0714
G2 X7.3178 Y23.813 I1.9783 J1.6642
G2 X7.247 Y23.9033 I5.7487 J4.5831
G3 X7.1935 Y23.9716 I-4.9076 J-3.7887
G3 X7.1702 Y24 I-0.8687 J-0.6902
G3 X7.1427 Y24.031 I-0.7486 J-0.6363
G3 X7.0964 Y24.0798 I-1.8928 J-1.7518
G2 X7.0597 Y24.1185 I1.2356 J1.2049
G2 X7.0466 Y24.134 I0.1843 J0.1689
G2 X7.0293 Y24.1618 I0.1248 J0.097
G2 X7.0249 Y24.1787 I0.0405 J0.0197
G2 X7.0297 Y24.1949 I0.0244 J0.0015
G2 X7.0465 Y24.2076 I0.0302 J-0.0226
G2 X7.0706 Y24.2133 I0.0339 J-0.0893
G2 X7.1177 Y24.215 I0.0359 J-0.3456
G2 X7.1636 Y24.2114 I-0.016 J-0.4944
G2 X7.213 Y24.203 I-0.0732 J-0.5801
G2 X7.2565 Y24.1918 I-0.1189 J-0.5544
G2 X7.3049 Y24.1755 I-0.2095 J-0.701
G2 X7.3417 Y24.1606 I-0.3027 J-0.8034
G2 X7.39 Y24.1388 I-0.6043 J-1.4036
G2 X7.4367 Y24.1157 I-0.6136 J-1.2994
G2 X7.4722 Y24.0963 I-0.3979 J-0.7689
G2 X7.5162 Y24.0691 I-0.4295 J-0.7429
G2 X7.5625 Y24.0366 I-0.5641 J-0.8526
G2 X7.6125 Y23.9972 I-0.6956 J-0.9347
G2 X7.6811 Y23.9378 I-1.514 J-1.8179
G2 X7.7539 Y23.8706 I-2.6545 J-2.9494
G2 X7.8799 Y23.7497 I-8.4809 J-8.9627
G2 X8.0128 Y23.6192 I-16.0055 J-16.442
G2 X8.1854 Y23.4474 I-27.5973 J-27.8934
G2 X8.3643 Y23.267 I-26.2656 J-26.22
G2 X8.492 Y23.1361 I-13.6824 J-13.4728
G2 X8.5792 Y23.0449 I-9.1385 J-8.8288
G2 X8.694 Y22.9228 I-16.2554 J-15.3952
G3 X8.7786 Y22.8333 I7.0341 J6.5627
G3 X8.8071 Y22.8046 I0.7512 J0.7191
G3 X8.8528 Y22.7646 I0.4203 J0.4349
G3 X8.8828 Y22.7449 I0.1307 J0.1657
G3 X8.9135 Y22.735 I0.0419 J0.077
G3 X8.927 Y22.7392 I0.0021 J0.0167
G3 X8.9343 Y22.7535 I-0.0154 J0.0168
G3 X8.9329 Y22.7908 I-0.1235 J0.0141
G3 X8.9213 Y22.8332 I-0.271 J-0.0515
G3 X8.8919 Y22.904 I-0.7905 J-0.286
G3 X8.8531 Y22.9803 I-1.2094 J-0.5669
G3 X8.7959 Y23.0788 I-2.0707 J-1.138
G3 X8.728 Y23.1837 I-2.2524 J-1.3832
G3 X8.6545 Y23.2864 I-2.2362 J-1.5232
G3 X8.5766 Y23.3853 I-2.2217 J-1.6704
G3 X8.4806 Y23.4971 I-2.9435 J-2.4291
G3 X8.3917 Y23.5938 I-3.2638 J-2.9125
G3 X8.289 Y23.6993 I-3.9875 J-3.7794
G3 X8.2023 Y23.7843 I-4.4367 J-4.4367
G3 X8.098 Y23.883 I-6.0889 J-6.3292
G3 X8.0325 Y23.9435 I-6.7056 J-7.2024
G3 X7.9334 Y24.0335 I-14.9672 J-16.371
G3 X7.9157 Y24.0495 I-43.225 J-47.8566
G3 X7.884 Y24.0781 I-138.8906 J-153.8872
G2 X7.7716 Y24.18 I18.6773 J20.7025
G2 X7.7304 Y24.2182 I2.5781 J2.8266
G2 X7.6882 Y24.2588 I1.7335 J1.8453
G2 X7.6594 Y24.2881 I0.8748 J0.8892
G2 X7.6247 Y24.3263 I0.794 J0.7555
G2 X7.593 Y24.3648 I0.7736 J0.6696
G2 X7.5576 Y24.413 I0.7393 J0.5794
G2 X7.5222 Y24.468 I0.9294 J0.6373
G2 X7.4827 Y24.5373 I1.3146 J0.7934
G2 X7.4297 Y24.641 I2.8845 J1.5424
G2 X7.3684 Y24.771 I4.2632 J2.0881
G2 X7.307 Y24.9119 I4.9571 J2.2446
G2 X7.2387 Y25.0841 I4.4454 J1.8634
G2 X7.19 Y25.2241 I2.8916 J1.0834
G2 X7.1481 Y25.3694 I2.428 J0.7791
G2 X7.1143 Y25.5193 I2.5513 J0.6546
G2 X7.0923 Y25.6467 I2.8986 J0.566
G2 X7.0695 Y25.8178 I5.2067 J0.7818
G2 X7.0525 Y25.9781 I7.4727 J0.8726
G2 X7.0382 Y26.1468 I8.2616 J0.7858
G2 X7.027 Y26.322 I8.0147 J0.5977
G2 X7.0206 Y26.4803 I6.526 J0.3434
G2 X7.0184 Y26.6456 I5.5762 J0.1581
G2 X7.021 Y26.7825 I3.8301 J-0.0049
G2 X7.0297 Y26.9253 I2.9982 J-0.1111
G2 X7.042 Y27.0298 I1.6179 J-0.1374
G2 X7.0604 Y27.1256 I1.2171 J-0.1834
G2 X7.0845 Y27.2122 I1.0172 J-0.2369
G2 X7.1062 Y27.2725 I1.0214 J-0.3328
G2 X7.1437 Y27.3628 I2.3274 J-0.915
G2 X7.1732 Y27.4288 I5.3595 J-2.3528
G2 X7.2149 Y27.5197 I10.2194 J-4.6378
G2 X7.2403 Y27.574 I12.9753 J-6.0286
G2 X7.2923 Y27.6845 I53.9115 J-25.3232
G0 Z0.15
G0 X7.2648 Y23.9389
G1 Z-0.5 F30
G2 X7.281 Y23.9752 I0.7844 J-0.3268 F60
G2 X7.2899 Y23.9919 I0.1732 J-0.0819
G2 X7.3085 Y24.0166 I0.1259 J-0.0755
G2 X7.3274 Y24.0321 I0.0674 J-0.063
G2 X7.3498 Y24.0425 I0.0549 J-0.0888
G2 X7.386 Y24.0513 I0.0744 J-0.2271
G2 X7.4084 Y24.0542 I0.0539 J-0.3331
G2 X7.4572 Y24.058 I0.1469 J-1.5679
G0 Z0.15
G0 X10.3693 Y20.8435
G1 Z-0.5 F30
G3 X10.2563 Y20.8672 I-1.9167 J-8.8645 F60
G3 X10.2002 Y20.8779 I-0.4418 J-2.1769
G3 X10.1061 Y20.8919 I-0.3148 J-1.7859
G3 X10.0321 Y20.8985 I-0.1346 J-1.098
G3 X9.9578 Y20.9 I-0.0594 J-1.0833
G3 X9.8659 Y20.8962 I0.0227 J-1.6613
G3 X9.8108 Y20.8916 I0.1375 J-1.988
G3 X9.7008 Y20.8802 I0.7694 J-7.9231
G0 Z0.15
G0 X14.2523 Y29.4611
G1 Z-0.5 F30
G1 X14.2523 Y29.4611 F60
G1 X14.2523 Y29.4611
G2 X14.2343 Y29.4888 I1.2031 J0.8021
G2 X14.2261 Y29.5023 I0.2796 J0.1773
G2 X14.2144 Y29.5258 I0.22 J0.1252
G2 X14.208 Y29.5436 I0.1206 J0.053
G2 X14.2055 Y29.5547 I0.1154 J0.032
G2 X14.2025 Y29.5745 I0.3661 J0.0648
G3 X14.2008 Y29.5868 I-0.2748 J-0.0334
G3 X14.1999 Y29.5904 I-0.0247 J-0.0041
G3 X14.1972 Y29.5939 I-0.0065 J-0.0021
G3 X14.1944 Y29.5941 I-0.0016 J-0.0023
G3 X14.1922 Y29.5927 I0.0043 J-0.0088
G3 X14.1877 Y29.5881 I0.0388 J-0.0436
G3 X14.185 Y29.5851 I0.0807 J-0.0727
G3 X14.1782 Y29.5769 I0.5829 J-0.4875
G2 X14.1505 Y29.5459 I-0.3319 J0.2698
G2 X14.1333 Y29.5314 I-0.0895 J0.0885
G2 X14.1101 Y29.5187 I-0.0692 J0.0986
G2 X14.0814 Y29.51 I-0.0591 J0.1431
G2 X14.054 Y29.5065 I-0.0367 J0.1831
G2 X14.0203 Y29.5069 I-0.0139 J0.2783
G2 X13.9861 Y29.5113 I0.0215 J0.3012
G2 X13.9552 Y29.5191 I0.0477 J0.2544
G2 X13.922 Y29.5325 I0.0717 J0.2249
G2 X13.8936 Y29.5497 I0.0902 J0.1818
G2 X13.8752 Y29.5645 I0.1259 J0.1748
G2 X13.8531 Y29.5862 I0.2481 J0.2751
G2 X13.8407 Y29.6 I0.3376 J0.3166
G2 X13.8162 Y29.6288 I1.4433 J1.2484
G3 X13.8006 Y29.6474 I-2.23 J-1.853
G3 X13.7929 Y29.6565 I-0.5311 J-0.4489
G3 X13.7636 Y29.687 I-0.3619 J-0.3166
G3 X13.7447 Y29.7026 I-0.1116 J-0.1165
G3 X13.7182 Y29.7149 I-0.0478 J-0.0681
G3 X13.7007 Y29.7142 I-0.0076 J-0.0287
G3 X13.6849 Y29.7031 I0.0119 J-0.0337
G3 X13.6667 Y29.6725 I0.0943 J-0.0768
G3 X13.6557 Y29.6377 I0.2024 J-0.0831
G3 X13.6469 Y29.5851 I0.4549 J-0.103
G3 X13.6448 Y29.5609 I0.5607 J-0.061
G3 X13.6418 Y29.507 I2.7661 J-0.1807
G2 X13.639 Y29.4544 I-3.1349 J0.1436
G2 X13.6369 Y29.4287 I-0.7546 J0.0473
G2 X13.6311 Y29.3858 I-0.5839 J0.0567
G2 X13.6243 Y29.3556 I-0.2964 J0.051
G2 X13.6115 Y29.3199 I-0.2509 J0.0704
G2 X13.5915 Y29.282 I-0.304 J0.1354
G2 X13.5773 Y29.2603 I-0.3301 J0.2014
G2 X13.5463 Y29.218 I-1.2793 J0.904
G3 X13.5306 Y29.1972 I2.6728 J-2.026
G3 X13.5228 Y29.1864 I0.7033 J-0.5245
G3 X13.5108 Y29.1694 I0.7249 J-0.5237
G3 X13.4866 Y29.1338 I3.1666 J-2.1777
G2 X13.428 Y29.0514 I-1.5667 J1.0517
G2 X13.393 Y29.0094 I-0.4402 J0.3311
G2 X13.3547 Y28.9712 I-0.461 J0.4244
G2 X13.3028 Y28.9269 I-0.6733 J0.7368
G2 X13.2607 Y28.8949 I-0.779 J0.9792
G2 X13.2023 Y28.8537 I-1.3469 J1.8483
G2 X13.1957 Y28.8492 I-1.6791 J2.4624
G2 X13.1829 Y28.8405 I-6.5193 J9.6151
G3 X13.1253 Y28.8003 I1.2324 J-1.8229
G3 X13.1021 Y28.7821 I0.2284 J-0.3156
G3 X13.069 Y28.748 I0.1566 J-0.1851
G3 X13.0558 Y28.7239 I0.0636 J-0.0506
G3 X13.0528 Y28.6928 I0.0631 J-0.0218
G3 X13.0652 Y28.6569 I0.0975 J0.0138
G3 X13.0878 Y28.6279 I0.1197 J0.0699
G3 X13.1229 Y28.6003 I0.1436 J0.1462
G3 X13.158 Y28.5824 I0.1184 J0.1896
G3 X13.209 Y28.5657 I0.1537 J0.3831
G3 X13.2484 Y28.5569 I0.152 J0.5909
G3 X13.3259 Y28.5438 I0.4252 J2.2668
G3 X13.4161 Y28.5306 I1.0177 J6.6736
G3 X13.59 Y28.5071 I3.4391 J24.7922
G1 X13.59 Y28.5071
G1 X13.59 Y28.5071
G2 X13.6333 Y28.5008 I-0.2019 J-1.5345
G2 X13.6458 Y28.4982 I-0.0209 J-0.1303
G2 X13.6579 Y28.4942 I-0.0274 J-0.1049
G2 X13.689 Y28.4812 I-0.2769 J-0.706
G1 X13.689 Y28.4812
G1 X13.6891 Y28.4812
G2 X13.7405 Y28.458 I-2.1944 J-4.9374
G2 X13.7734 Y28.4427 I-0.9346 J-2.045
G2 X13.832 Y28.4134 I-0.7794 J-1.6349
G2 X13.8692 Y28.3927 I-0.3557 J-0.6816
G2 X13.9069 Y28.368 I-0.2674 J-0.4497
G2 X13.9388 Y28.3427 I-0.2484 J-0.346
G2 X13.9607 Y28.3223 I-0.3003 J-0.3436
G2 X13.9958 Y28.2858 I-0.9246 J-0.9277
G2 X14.0327 Y28.2452 I-1.7438 J-1.6192
G2 X14.0584 Y28.2153 I-0.923 J-0.8183
G2 X14.092 Y28.1723 I-0.692 J-0.575
G2 X14.1118 Y28.1424 I-0.3149 J-0.2309
G2 X14.1284 Y28.1102 I-0.2408 J-0.1446
G2 X14.1393 Y28.0795 I-0.2088 J-0.0912
G2 X14.1445 Y28.0559 I-0.2216 J-0.0609
G2 X14.1486 Y28.0233 I-0.4196 J-0.0691
G2 X14.1503 Y27.9987 I-0.7368 J-0.0635
G2 X14.1515 Y27.9681 I-1.1427 J-0.0602
G2 X14.1518 Y27.9495 I-1.3772 J-0.0357
G2 X14.1522 Y27.9128 I-5.3866 J-0.0667
G0 Z0.15
G0 X13.2083 Y29.9465
G1 Z-0.5 F30
G1 X13.2083 Y29.9464 F60
G1 X13.2083 Y29.9464
G2 X13.2413 Y29.8639 I-6.1485 J-2.505
G2 X13.256 Y29.8248 I-1.3618 J-0.5337
G2 X13.2773 Y29.7587 I-1.0044 J-0.3609
G2 X13.2876 Y29.7145 I-0.4377 J-0.1258
G2 X13.2929 Y29.6698 I-0.3488 J-0.0635
G2 X13.2925 Y29.6231 I-0.3813 J-0.0203
G2 X13.2895 Y29.5944 I-0.4275 J0.0296
G2 X13.2804 Y29.5352 I-1.8259 J0.251
G3 X13.2802 Y29.5337 I79.1643 J-13.5172
G1 X13.28 Y29.5329
G3 X13.2795 Y29.5296 I20.909 J-3.5689
G3 X13.2783 Y29.5229 I86.0481 J-14.6735
G2 X13.2545 Y29.3897 I-7.9814 J1.3604
G2 X13.2272 Y29.2506 I-8.7213 J1.637
G2 X13.193 Y29.095 I-5.2299 J1.0684
G2 X13.1673 Y28.9963 I-2.1297 J0.5017
G2 X13.1151 Y28.8433 I-1.5321 J0.4372
G2 X13.07 Y28.7523 I-0.583 J0.2325
G2 X13.0147 Y28.6785 I-0.3894 J0.2341
G2 X12.9448 Y28.6165 I-0.3421 J0.3155
G2 X12.8968 Y28.5858 I-0.3012 J0.4175
G2 X12.7978 Y28.5335 I-0.9785 J1.7325
G3 X12.7771 Y28.5232 I4.3886 J-8.9056
G3 X12.7667 Y28.5181 I1.1142 J-2.2479
G3 X12.7049 Y28.486 I1.1445 J-2.2823
G3 X12.581 Y28.4185 I4.9517 J-9.2371
G2 X12.4833 Y28.365 I-6.1118 J11.0417
G2 X12.4361 Y28.34 I-1.3819 J2.5494
G2 X12.3974 Y28.3203 I-1.2706 J2.4507
G2 X12.3208 Y28.2825 I-4.7699 J9.5653
G3 X12.18 Y28.2118 I3.1374 J-6.4196
G3 X12.0917 Y28.1642 I1.3291 J-2.574
G3 X12.001 Y28.1117 I1.9281 J-3.4367
G3 X11.8635 Y28.0281 I4.7672 J-7.9915
G3 X11.7816 Y27.9768 I6.6945 J-10.7935
G3 X11.6076 Y27.8667 I30.7404 J-48.7307
G1 X11.6076 Y27.8667
G1 X11.6076 Y27.8667
G0 Z0.15
G0 X12.6479 Y29.8654
G1 Z-0.5 F30
G2 X12.7098 Y29.6363 I-10.5627 J-2.9781 F60
G2 X12.738 Y29.517 I-2.8371 J-0.7341
G2 X12.773 Y29.316 I-2.5529 J-0.5477
G2 X12.7893 Y29.1345 I-2.065 J-0.2767
G2 X12.791 Y28.9566 I-2.4538 J-0.1123
G2 X12.7781 Y28.7166 I-4.4825 J0.1198
G2 X12.7657 Y28.5834 I-5.1567 J0.4151
G2 X12.7427 Y28.3844 I-11.5413 J1.2301
G1 X12.7427 Y28.3843
G1 X12.7427 Y28.3843
G3 X12.7279 Y28.2647 I107.3973 J-13.3254
G3 X12.725 Y28.2403 I4.434 J-0.5451
G3 X12.7223 Y28.216 I1.5572 J-0.1828
G3 X12.7199 Y28.1897 I1.8152 J-0.1844
G1 X12.7199 Y28.1897
G1 X12.7199 Y28.1897
G2 X12.7085 Y28.0848 I-2.443 J0.2123
G2 X12.697 Y28.0142 I-1.1179 J0.1458
G2 X12.6863 Y27.9654 I-1.0716 J0.2095
G2 X12.6714 Y27.9093 I-1.4324 J0.3488
G2 X12.6576 Y27.8632 I-1.6649 J0.4756
G2 X12.639 Y27.8067 I-2.5256 J0.798
G2 X12.6215 Y27.7569 I-2.8514 J0.9719
G2 X12.6026 Y27.7056 I-3.0447 J1.0976
G2 X12.5833 Y27.6559 I-3.4527 J1.3111
G2 X12.5583 Y27.5938 I-5.3824 J2.1333
G2 X12.5243 Y27.5141 I-2.932 J1.2014
G2 X12.4993 Y27.4604 I-1.3573 J0.6
G2 X12.4572 Y27.3814 I-1.2118 J0.5946
G2 X12.4139 Y27.3121 I-0.9779 J0.5631
G2 X12.366 Y27.246 I-1.0355 J0.7008
G2 X12.2946 Y27.1585 I-1.8935 J1.4703
G2 X12.2499 Y27.1073 I-2.3461 J2.0059
G2 X12.1555 Y27.0029 I-9.8941 J8.8434
G0 Z0.15
G0 X12.439 Y29.9098
G1 Z-0.5 F30
G1 X12.439 Y29.9095 F60
G1 X12.439 Y29.9095
G2 X12.4326 Y29.7785 I-26.0777 J1.2137
G2 X12.429 Y29.7159 I-5.949 J0.3068
G2 X12.4213 Y29.6118 I-4.5033 J0.2798
G2 X12.414 Y29.5403 I-2.1295 J0.1819
G2 X12.4025 Y29.4605 I-1.5992 J0.191
G2 X12.3892 Y29.3949 I-1.098 J0.1872
G2 X12.372 Y29.3308 I-0.9731 J0.2268
G2 X12.351 Y29.2692 I-0.9195 J0.2798
G2 X12.3282 Y29.2139 I-0.9903 J0.3763
G2 X12.2973 Y29.1489 I-1.3952 J0.6225
G2 X12.2711 Y29.0987 I-1.6961 J0.8546
G2 X12.2317 Y29.0277 I-3.4331 J1.8601
G2 X12.191 Y28.9575 I-4.6206 J2.6292
G2 X12.0787 Y28.7682 I-33.6328 J19.8236
G3 X12.0551 Y28.7287 I368.3273 J-219.9041
G3 X12.0422 Y28.707 I111.0736 J-66.2986
G3 X12.04 Y28.7033 I114.8746 J-68.5369
G3 X12.0354 Y28.6957 I474.2368 J-282.9201
G2 X11.9348 Y28.5281 I-31.0391 J18.5166
G2 X11.8745 Y28.4292 I-10.8758 J6.5681
G2 X11.7673 Y28.2587 I-9.7168 J5.9897
G2 X11.6767 Y28.1207 I-6.4635 J4.1434
G2 X11.5694 Y27.9654 I-6.1289 J4.1176
G2 X11.4581 Y27.8126 I-6.0376 J4.2841
G2 X11.3476 Y27.6691 I-5.3795 J4.0275
G2 X11.2562 Y27.5575 I-3.3433 J2.6466
G2 X11.1703 Y27.4605 I-2.3673 J2.008
G2 X11.0952 Y27.3831 I-1.5826 J1.4601
G2 X11.0344 Y27.3259 I-1.3905 J1.4183
G2 X10.9573 Y27.2588 I-1.9938 J2.2124
G2 X10.8656 Y27.1838 I-2.7812 J3.3077
G2 X10.6777 Y27.0365 I-10.9089 J13.7208
G1 X10.6777 Y27.0365
G0 Z0.15
G0 X9.6825 Y27.4647
G1 Z-0.5 F30
G1 X9.6825 Y27.4647 F60
G3 X9.5855 Y27.3908 I5.1099 J-6.8132
G3 X9.5392 Y27.3539 I1.2276 J-1.5888
G3 X9.465 Y27.289 I1.0002 J-1.2185
G3 X9.414 Y27.2373 I0.5837 J-0.6268
G3 X9.3666 Y27.1798 I0.5782 J-0.5238
G3 X9.3197 Y27.1108 I0.7831 J-0.5837
G3 X9.2882 Y27.0568 I0.9804 J-0.608
G3 X9.246 Y26.9763 I2.1382 J-1.1708
G3 X9.2083 Y26.8982 I2.759 J-1.3796
G3 X9.1808 Y26.8361 I1.7123 J-0.7968
G3 X9.1502 Y26.7583 I1.4967 J-0.6321
G3 X9.127 Y26.6878 I1.2033 J-0.4367
G3 X9.1067 Y26.6115 I1.2504 J-0.3734
G3 X9.0909 Y26.5335 I1.2896 J-0.3014
G3 X9.0803 Y26.4565 I1.169 J-0.2001
G3 X9.0766 Y26.3963 I0.7089 J-0.074
G3 X9.0782 Y26.3436 I0.5222 J-0.0101
G3 X9.0848 Y26.2963 I0.4261 J0.0349
G3 X9.0913 Y26.2683 I0.4021 J0.0787
G3 X9.1056 Y26.2192 I1.2544 J0.3384
G1 X9.1056 Y26.2192
G1 X9.1056 Y26.2192
G0 Z0.15
G0 X11.4042 Y30.038
G1 Z-0.5 F30
G1 X11.4042 Y30.038 F60
G1 X11.4042 Y30.038
G2 X11.5065 Y29.9027 I-6.5058 J-5.0272
G2 X11.5779 Y29.8034 I-3.4313 J-2.5401
G2 X11.6338 Y29.7217 I-4.9774 J-3.4685
G2 X11.6907 Y29.6358 I-5.4436 J-3.6629
G2 X11.7525 Y29.5386 I-4.7235 J-3.0717
G2 X11.7968 Y29.4651 I-2.6553 J-1.6505
G2 X11.8411 Y29.3848 I-1.6716 J-0.9765
G2 X11.8712 Y29.3226 I-0.9733 J-0.5083
G2 X11.8979 Y29.2566 I-0.9496 J-0.4222
G2 X11.9243 Y29.1769 I-1.3576 J-0.4953
G2 X11.9503 Y29.0779 I-1.3843 J-0.4157
G2 X11.9681 Y28.982 I-1.2813 J-0.2878
G2 X11.9816 Y28.8521 I-1.4925 J-0.2204
G2 X11.9854 Y28.694 I-2.2071 J-0.1326
G2 X11.9761 Y28.4977 I-2.7513 J0.0318
G2 X11.952 Y28.2925 I-3.0292 J0.2519
G2 X11.9048 Y28.0524 I-2.7909 J0.4245
G2 X11.844 Y27.8465 I-2.1106 J0.5113
G2 X11.7666 Y27.6558 I-1.9869 J0.6952
G2 X11.6497 Y27.4278 I-2.96 J1.3732
G2 X11.5715 Y27.295 I-3.4411 J1.9379
G2 X11.4062 Y27.0323 I-13.6356 J8.3963
G0 Z0.15
G0 X10.9371 Y30.1937
G1 Z-0.5 F30
G1 X10.9371 Y30.1937 F60
G2 X10.9945 Y30.117 I-5.0279 J-3.8212
G2 X11.0218 Y30.0787 I-1.225 J-0.902
G2 X11.0642 Y30.0129 I-1.0068 J-0.6944
G2 X11.0928 Y29.9602 I-0.615 J-0.3685
G2 X11.1183 Y29.901 I-0.5928 J-0.2909
G2 X11.1401 Y29.834 I-0.7396 J-0.2771
G2 X11.1549 Y29.7723 I-0.8974 J-0.2476
G2 X11.1691 Y29.6916 I-1.5197 J-0.3097
G2 X11.179 Y29.6157 I-2.0402 J-0.3046
G2 X11.1874 Y29.5273 I-2.7541 J-0.3072
G2 X11.1931 Y29.441 I-3.0819 J-0.2442
G2 X11.1966 Y29.3482 I-3.56 J-0.182
G2 X11.1976 Y29.2871 I-3.6202 J-0.0906
G2 X11.1981 Y29.16 I-15.656 J-0.1274
G3 X11.1986 Y29.0262 I18.3284 J0.0004
G3 X11.1997 Y28.9513 I5.7258 J0.0419
G3 X11.203 Y28.8371 I6.5422 J0.1334
G3 X11.2086 Y28.7148 I7.4973 J0.284
G3 X11.2166 Y28.5887 I7.2235 J0.3918
G3 X11.2256 Y28.4782 I5.5502 J0.3983
G3 X11.2297 Y28.4355 I4.8393 J0.4443
G3 X11.238 Y28.3553 I17.1119 J1.7236
G2 X11.2478 Y28.2581 I-12.4045 J-1.3083
G2 X11.2521 Y28.2107 I-2.9443 J-0.2872
G2 X11.2572 Y28.1325 I-2.4688 J-0.2008
G2 X11.2592 Y28.0676 I-1.6962 J-0.0841
G2 X11.2579 Y27.9771 I-1.82 J-0.0206
G2 X11.2512 Y27.8597 I-3.0698 J0.1181
G2 X11.2447 Y27.7854 I-3.7705 J0.2899
G2 X11.2317 Y27.6586 I-10.9868 J1.0631
G2 X11.22 Y27.5522 I-26.968 J2.9242
G2 X11.2121 Y27.4839 I-11.1207 J1.2503
G2 X11.2016 Y27.3998 I-7.8336 J0.9295
G2 X11.1936 Y27.3412 I-3.8178 J0.4946
G2 X11.1816 Y27.2699 I-1.5592 J0.2264
G2 X11.1718 Y27.2279 I-0.5488 J0.1056
G2 X11.1538 Y27.1743 I-0.4762 J0.1304
G2 X11.1286 Y27.1203 I-0.5106 J0.205
G2 X11.0996 Y27.0706 I-0.6646 J0.3547
G2 X11.0498 Y26.9964 I-1.5304 J0.9738
G2 X11.0183 Y26.953 I-2.0389 J1.443
G2 X10.9497 Y26.8612 I-9.1603 J6.7829
G1 X10.9497 Y26.8612
G1 X10.9497 Y26.8612
G0 Z0.15
G0 X11.841 Y29.9029
G1 Z-0.5 F30
G2 X11.7138 Y29.7009 I-835.1234 J525.6974 F60
G2 X11.6553 Y29.6081 I-176.6664 J111.2685
G2 X11.5576 Y29.4534 I-122.716 J77.3794
G2 X11.5 Y29.3624 I-42.4848 J26.864
G2 X11.4363 Y29.2627 I-24.2928 J15.4338
G2 X11.395 Y29.1987 I-10.0229 J6.4258
G2 X11.3558 Y29.1389 I-7.51 J4.8828
G2 X11.3172 Y29.0811 I-7.064 J4.6734
G2 X11.2724 Y29.0153 I-6.1454 J4.1387
G2 X11.2391 Y28.9678 I-3.2281 J2.2248
G2 X11.1948 Y28.907 I-2.4998 J1.7779
G2 X11.1596 Y28.8616 I-1.4294 J1.0704
G2 X11.1192 Y28.8134 I-1.0875 J0.8703
G2 X11.0806 Y28.7715 I-0.8552 J0.7503
G2 X11.0396 Y28.7313 I-0.8422 J0.817
G2 X10.9897 Y28.6866 I-1.0933 J1.1696
G2 X10.9291 Y28.637 I-1.0608 J1.2346
G2 X10.8731 Y28.5957 I-0.7896 J1.0138
G2 X10.799 Y28.5481 I-0.7006 J1.0075
G2 X10.7234 Y28.5068 I-0.599 J1.0089
G2 X10.6474 Y28.4719 I-0.5925 J1.1889
G2 X10.5396 Y28.4293 I-0.9957 J2.3588
G2 X10.4739 Y28.4058 I-1.1458 J3.0994
G2 X10.3366 Y28.359 I-4.6715 J13.5057
G1 X10.3366 Y28.359
G1 X10.3366 Y28.359
G0 Z0.15
G0 X11.0745 Y29.7816
G1 Z-0.5 F30
G3 X10.9923 Y29.7053 I23.2503 J-25.1103 F60
G3 X10.9483 Y29.664 I6.7466 J-7.2385
G3 X10.8755 Y29.5946 I6.4847 J-6.8731
G3 X10.8059 Y29.5267 I6.1296 J-6.3598
G3 X10.7923 Y29.5133 I6.5252 J-6.6227
G3 X10.7639 Y29.4852 I28.6142 J-28.9228
G2 X10.6629 Y29.3861 I-10.5673 J10.6603
G2 X10.603 Y29.3286 I-3.6072 J3.7082
G2 X10.4985 Y29.2329 I-3.4947 J3.7099
G2 X10.3953 Y29.1436 I-3.1447 J3.53
G2 X10.2636 Y29.0363 I-3.6246 J4.3131
G2 X10.0908 Y28.9031 I-5.7525 J7.2803
G2 X9.9314 Y28.7854 I-6.5091 J8.6482
G2 X9.7635 Y28.6659 I-6.8668 J9.4797
G2 X9.5997 Y28.554 I-5.7776 J8.279
G2 X9.4649 Y28.4662 I-3.6927 J5.5194
G2 X9.3218 Y28.3785 I-2.8533 J4.4969
G2 X9.2064 Y28.3134 I-1.6903 J2.8593
G2 X9.0986 Y28.2583 I-1.3347 J2.4785
G2 X8.983 Y28.2052 I-1.355 J2.7981
G2 X8.91 Y28.1744 I-1.3694 J3.1502
G2 X8.7653 Y28.1164 I-5.0192 J12.3156
G2 X8.6138 Y28.057 I-19.2358 J48.8294
G2 X8.5277 Y28.0237 I-6.1339 J15.7134
G2 X8.3901 Y27.9717 I-4.899 J12.7554
G2 X8.2845 Y27.9333 I-2.7748 J7.4638
G2 X8.1597 Y27.8904 I-2.103 J5.9107
G2 X8.0519 Y27.856 I-1.4527 J4.372
G2 X7.9337 Y27.8218 I-1.2496 J4.0941
G2 X7.8159 Y27.7913 I-1.1056 J4.0345
G2 X7.6911 Y27.7629 I-1.0496 J4.3189
G2 X7.5602 Y27.7369 I-1.0043 J4.7216
G2 X7.4249 Y27.714 I-0.8842 J4.8055
G2 X7.2909 Y27.6952 I-0.7292 J4.7018
G2 X7.1527 Y27.6798 I-0.5816 J4.6136
G2 X7.0199 Y27.6692 I-0.407 J4.2481
G2 X6.8838 Y27.6628 I-0.2529 J3.9269
G2 X6.7628 Y27.6616 I-0.0921 J3.1044
G2 X6.6413 Y27.6654 I0.0252 J2.705
G2 X6.5309 Y27.6742 I0.1218 J2.2438
G2 X6.4229 Y27.6882 I0.2182 J2.101
G2 X6.3186 Y27.7074 I0.3096 J1.9801
G2 X6.2152 Y27.7321 I0.4118 J1.951
G2 X6.1196 Y27.7606 I0.4542 J1.6983
G2 X6.0241 Y27.7955 I0.4929 J1.4969
G2 X5.9446 Y27.831 I0.4324 J1.0744
G2 X5.8756 Y27.8682 I0.4725 J0.9589
G2 X5.8063 Y27.9123 I0.5943 J1.0115
G2 X5.7598 Y27.9458 I0.6913 J1.0079
G2 X5.708 Y27.9867 I0.976 J1.2888
G2 X5.6572 Y28.0306 I0.8738 J1.0611
G2 X5.6073 Y28.0783 I0.9754 J1.073
G1 X5.6073 Y28.0783
G1 X5.6073 Y28.0783
G3 X5.7541 Y28.0638 I0.9981 J9.3819
G3 X5.835 Y28.0576 I0.2575 J2.8423
G3 X5.9715 Y28.0526 I0.1664 J2.6834
G3 X6.0991 Y28.0547 I0.0261 J2.3468
G3 X6.2068 Y28.0611 I-0.146 J3.3724
G3 X6.3686 Y28.075 I-0.5751 J7.6285
G3 X6.4655 Y28.0848 I-0.9912 J10.242
G3 X6.6691 Y28.107 I-4.8157 J45.289
G2 X6.745 Y28.1154 I13.4802 J-121.5725
G2 X6.7826 Y28.1195 I3.2775 J-29.7281
G2 X6.8068 Y28.1221 I3.209 J-29.4479
G2 X6.8549 Y28.1273 I12.5088 J-115.6745
G3 X7.0641 Y28.1507 I-2.7521 J25.5491
G3 X7.1696 Y28.1638 I-0.7552 J6.5099
G3 X7.3438 Y28.1896 I-0.7547 J5.6964
G3 X7.4954 Y28.2172 I-0.7106 J4.3377
G3 X7.6929 Y28.2613 I-0.8766 J4.3823
G3 X7.8899 Y28.3149 I-1.0933 J4.4159
G3 X8.1016 Y28.3833 I-1.253 J4.2359
G3 X8.2982 Y28.4583 I-1.3107 J3.7294
G3 X8.4864 Y28.5416 I-1.5491 J3.7558
G3 X8.6898 Y28.6436 I-2.1239 J4.4896
G3 X8.8617 Y28.7388 I-2.5201 J4.7512
G3 X9.0388 Y28.8454 I-2.9768 J5.1485
G3 X9.1941 Y28.9463 I-2.8462 J4.5501
G3 X9.3281 Y29.0406 I-2.3514 J3.4856
G3 X9.4529 Y29.1358 I-2.3652 J3.2272
G3 X9.5788 Y29.2398 I-2.6936 J3.3881
G3 X9.6987 Y29.3462 I-3.1681 J3.6901
G3 X9.8122 Y29.454 I-3.1369 J3.419
G3 X9.9222 Y29.5663 I-2.794 J2.8462
G3 X9.9999 Y29.6534 I-1.6025 J1.5086
G3 X10.0569 Y29.7246 I-1.2357 J1.0454
G3 X10.1044 Y29.792 I-1.058 J0.7974
G3 X10.1306 Y29.8334 I-1.023 J0.6755
G3 X10.1719 Y29.9036 I-2.9153 J1.7621
G2 X10.1825 Y29.9221 I9.537 J-5.4574
G2 X10.1878 Y29.9313 I2.3202 J-1.3337
G2 X10.2178 Y29.9819 I2.4121 J-1.3992
G2 X10.2551 Y30.042 I3.4401 J-2.0937
G2 X10.278 Y30.0777 I3.9762 J-2.5168
G2 X10.3236 Y30.1479 I15.3722 J-9.9255
G0 Z0.15
G0 X6.4681 Y27.6936
G1 Z-0.5 F30
G1 X6.4681 Y27.6936 F60
G1 X6.4681 Y27.6936
G2 X6.4286 Y27.6974 I0.0829 J1.0774
G2 X6.4062 Y27.7007 I0.0399 J0.3501
G2 X6.3695 Y27.7092 I0.0665 J0.3699
G2 X6.3292 Y27.7227 I0.1311 J0.4592
G2 X6.2853 Y27.7413 I0.2429 J0.6317
G2 X6.2309 Y27.7686 I0.4691 J1.003
G2 X6.1784 Y27.7986 I0.5292 J0.9861
G2 X6.1384 Y27.8249 I0.365 J0.5999
G2 X6.1029 Y27.8526 I0.2679 J0.3795
G2 X6.0787 Y27.8764 I0.1723 J0.1997
G2 X6.0605 Y27.8998 I0.1642 J0.147
G2 X6.0453 Y27.9257 I0.1878 J0.1273
G2 X6.0311 Y27.9602 I0.2293 J0.1146
G2 X6.0102 Y28.0325 I0.9859 J0.3239
G1 X6.0102 Y28.0325
G1 X6.0102 Y28.0325
G0 Z0.15
G0 X9.71 Y30.2853
G1 Z-0.5 F30
G1 X9.71 Y30.2853 F60
G1 X9.71 Y30.2853
G3 X9.6129 Y30.2024 I7.149 J-8.4729
G3 X9.5632 Y30.1585 I1.9549 J-2.2635
G3 X9.4827 Y30.0828 I1.7986 J-1.9916
G3 X9.4139 Y30.0121 I1.498 J-1.5273
G3 X9.3734 Y29.9674 I1.6076 J-1.4946
G3 X9.2873 Y29.8682 I7.8041 J-6.8651
G2 X9.1529 Y29.7151 I-6.6086 J5.6669
G2 X9.0751 Y29.6321 I-2.0209 J1.8167
G2 X8.9791 Y29.5381 I-2.2151 J2.1657
G2 X8.8515 Y29.4224 I-3.4866 J3.7178
G2 X8.744 Y29.3302 I-4.3948 J5.0156
G2 X8.5867 Y29.2001 I-8.903 J10.6071
G2 X8.4584 Y29.0965 I-13.431 J16.4893
G2 X8.2942 Y28.9657 I-21.5718 J26.9072
G2 X8.1734 Y28.8704 I-25.8642 J32.6669
G2 X8.0235 Y28.753 I-39.4599 J50.2182
G2 X7.9054 Y28.6609 I-39.0938 J50.0588
G2 X7.8163 Y28.5919 I-22.0644 J28.3908
G2 X7.7309 Y28.5262 I-18.3561 J23.7726
G2 X7.648 Y28.4629 I-17.1061 J22.3189
G1 X7.3198 Y28.2156
G0 Z0.15
G0 X7.9517 Y28.3072
G1 Z-0.5 F30
G2 X7.8694 Y28.323 I1.1628 J6.2789 F60
G2 X7.8327 Y28.3308 I0.2506 J1.2609
G2 X7.7724 Y28.347 I0.1886 J0.8223
G2 X7.7411 Y28.3591 I0.072 J0.2331
G2 X7.713 Y28.3764 I0.0616 J0.1318
G2 X7.6952 Y28.395 I0.0547 J0.0698
G2 X7.6874 Y28.4087 I0.0678 J0.0479
G2 X7.6769 Y28.4354 I0.2521 J0.1143
G1 X7.6769 Y28.4354
G0 Z0.15
G0 X8.1989 Y27.776
G1 Z-0.5 F30
G1 X8.1989 Y27.776 F60
G1 X8.1989 Y27.776
G2 X8.1176 Y27.6679 I-2.8079 J2.0279
G2 X8.0555 Y27.5929 I-1.4142 J1.1079
G2 X8.0447 Y27.5807 I-1.7492 J1.5304
G2 X8.0215 Y27.5546 I-7.9575 J7.0614
G3 X7.9606 Y27.4852 I3.76 J-3.3587
G3 X7.9292 Y27.4474 I1.0803 J-0.93
G3 X7.8793 Y27.3806 I0.9287 J-0.7454
G3 X7.8449 Y27.3258 I0.5896 J-0.4089
G3 X7.8162 Y27.2694 I0.5965 J-0.3385
G3 X7.787 Y27.1975 I0.9412 J-0.4246
G3 X7.7719 Y27.1534 I1.1565 J-0.4202
G3 X7.7445 Y27.0653 I4.5969 J-1.476
G2 X7.7321 Y27.0242 I-9.6509 J2.8966
G2 X7.7258 Y27.0038 I-2.3672 J0.7215
G2 X7.7124 Y26.9626 I-2.3433 J0.7363
G2 X7.6856 Y26.8833 I-8.6773 J2.8959
G3 X7.6465 Y26.7645 I4.5072 J-1.5502
G3 X7.6327 Y26.7154 I0.7575 J-0.2385
G3 X7.6217 Y26.661 I0.653 J-0.1603
G3 X7.6153 Y26.6064 I0.6535 J-0.1043
G3 X7.6136 Y26.5734 I0.6769 J-0.0509
G3 X7.6128 Y26.5123 I2.3151 J-0.0611
G1 X7.6128 Y26.5123
G1 X7.6128 Y26.5123
G2 X7.6101 Y26.6375 I26.1422 J0.6375
G2 X7.6092 Y26.6972 I5.9402 J0.1164
G2 X7.6094 Y26.7966 I4.4925 J0.0429
G2 X7.6113 Y26.8649 I2.1207 J-0.0267
G2 X7.6156 Y26.9308 I1.6546 J-0.0742
G2 X7.6264 Y27.0428 I4.7877 J-0.4064
G3 X7.6328 Y27.1036 I-8.0763 J0.8763
G3 X7.6357 Y27.1351 I-2.1512 J0.217
G3 X7.6396 Y27.1868 I-2.3029 J0.1984
G3 X7.6459 Y27.2952 I-10.1475 J0.6454
G2 X7.6502 Y27.3719 I13.8137 J-0.7305
G2 X7.6525 Y27.4083 I3.1057 J-0.1815
G2 X7.6572 Y27.4663 I3.0488 J-0.214
G2 X7.6636 Y27.5321 I3.9379 J-0.3519
G2 X7.668 Y27.5716 I4.4204 J-0.4698
G2 X7.6769 Y27.6478 I16.4797 J-1.9004
G0 Z0.15
G0 X15.8732 Y23.0231
G1 Z-0.5 F30
G2 X15.8638 Y22.9714 I-5.2722 J0.9301 F60
G2 X15.8589 Y22.9465 I-1.2266 J0.2288
G2 X15.8495 Y22.9055 I-0.9397 J0.1951
G2 X15.8412 Y22.8767 I-0.4683 J0.1189
G2 X15.8307 Y22.8478 I-0.3897 J0.1251
G2 X15.8172 Y22.8175 I-0.4416 J0.1793
G2 X15.8061 Y22.7961 I-0.5093 J0.2493
G2 X15.7862 Y22.7606 I-1.4088 J0.7658
G2 X15.7666 Y22.727 I-2.8924 J1.6686
G2 X15.7501 Y22.6997 I-1.9347 J1.1464
G2 X15.7298 Y22.6674 I-1.3517 J0.8271
G2 X15.7171 Y22.6485 I-0.4733 J0.3055
G2 X15.6964 Y22.6235 I-0.1684 J0.1186
G2 X15.6717 Y22.6019 I-0.1508 J0.1466
G1 X15.6717 Y22.6019
G0 Z0.15
G0 X15.8732 Y22.8216
G1 Z-0.5 F30
G1 X15.8732 Y22.8216 F60
G1 X15.8732 Y22.8216
G3 X15.901 Y22.7883 I1.8511 J1.5145
G3 X15.915 Y22.7724 I0.4357 J0.3699
G3 X15.9398 Y22.7474 I0.3365 J0.3078
G3 X15.9603 Y22.7301 I0.1803 J0.1926
G3 X15.9847 Y22.7137 I0.144 J0.189
G3 X16.0127 Y22.6995 I0.1362 J0.2341
G3 X16.0407 Y22.6889 I0.1277 J0.2931
G3 X16.0778 Y22.6782 I0.1663 J0.5065
G3 X16.1164 Y22.6697 I0.1661 J0.6648
G3 X16.1604 Y22.6625 I0.1618 J0.8547
G3 X16.2087 Y22.6572 I0.1315 J0.9622
G3 X16.2625 Y22.6537 I0.1025 J1.1918
G3 X16.3227 Y22.6526 I0.0546 J1.3375
G3 X16.3793 Y22.6542 I-0.005 J1.1854
G3 X16.4421 Y22.6597 I-0.0479 J0.9196
G3 X16.483 Y22.6668 I-0.0482 J0.3981
G3 X16.5198 Y22.6783 I-0.0539 J0.2366
G3 X16.551 Y22.6942 I-0.0748 J0.1857
G3 X16.5682 Y22.7062 I-0.1035 J0.1657
G3 X16.5967 Y22.7301 I-0.3774 J0.4804
G1 X16.5967 Y22.7301
G1 X16.5967 Y22.7301
G0 Z0.15
G0 X20.214 Y23.1605
G1 Z-0.5 F30
G2 X20.1763 Y22.8311 I-49.0061 J5.4451 F60
G2 X20.1568 Y22.6752 I-10.9823 J1.2951
G2 X20.1184 Y22.4165 I-8.1509 J1.0787
G2 X20.0859 Y22.2448 I-3.6193 J0.5967
G2 X20.057 Y22.123 I-2.8452 J0.6095
G2 X20.0023 Y21.9229 I-7.7329 J2.008
G3 X19.9743 Y21.8239 I10.4329 J-3.0003
G3 X19.9624 Y21.7792 I2.1118 J-0.5857
G3 X19.9455 Y21.7058 I1.5883 J-0.4046
G3 X19.9363 Y21.6526 I0.8233 J-0.1698
G3 X19.9294 Y21.5652 I0.7125 J-0.0998
G3 X19.9331 Y21.4682 I0.8817 J-0.0153
G3 X19.9404 Y21.408 I1.0507 J0.0978
G3 X19.9621 Y21.2764 I5.0465 J0.764
G2 X19.9712 Y21.2251 I-17.2958 J-3.0829
G2 X19.9759 Y21.1977 I-4.9675 J-0.8703
G2 X19.9905 Y21.1071 I-5.5978 J-0.9488
G2 X20.0225 Y20.8928 I-31.2591 J-4.7799
G3 X20.0554 Y20.6722 I35.5407 J5.1857
G3 X20.0724 Y20.5656 I8.3163 J1.2662
G3 X20.1044 Y20.386 I7.177 J1.1872
G3 X20.1734 Y20.0376 I27.0997 J5.1838
G2 X20.1863 Y19.9742 I-130.7369 J-26.7575
G2 X20.1927 Y19.9431 I-31.3701 J-6.4046
G2 X20.2253 Y19.7796 I-26.8199 J-5.4477
G2 X20.2488 Y19.658 I-14.8225 J-2.9169
G2 X20.2754 Y19.5115 I-11.2906 J-2.1259
G2 X20.2934 Y19.4028 I-6.1911 J-1.0828
G2 X20.3101 Y19.2868 I-4.6488 J-0.7294
G2 X20.3216 Y19.188 I-3.3595 J-0.4416
G2 X20.33 Y19.0907 I-3.2186 J-0.3273
G2 X20.3361 Y18.9846 I-3.8288 J-0.273
G2 X20.3395 Y18.8665 I-3.9944 J-0.1739
G2 X20.3392 Y18.7652 I-2.9414 J-0.0411
G2 X20.3337 Y18.6442 I-2.4383 J0.05
G2 X20.3239 Y18.5481 I-1.5464 J0.1087
G2 X20.3079 Y18.4534 I-1.3554 J0.1806
G2 X20.2847 Y18.3569 I-1.4326 J0.2944
G2 X20.2612 Y18.2801 I-1.5136 J0.4198
G2 X20.2293 Y18.1909 I-2.0687 J0.6895
G2 X20.1956 Y18.1079 I-1.9986 J0.764
G2 X20.166 Y18.044 I-1.2136 J0.5232
G2 X20.1277 Y17.9733 I-1.0028 J0.4973
G2 X20.0889 Y17.9131 I-0.7629 J0.4493
G2 X20.0429 Y17.8534 I-0.7146 J0.5027
G2 X19.9916 Y17.7975 I-0.6756 J0.5684
G2 X19.9358 Y17.7463 I-0.6111 J0.611
G2 X19.8783 Y17.7025 I-0.5047 J0.6019
G2 X19.8173 Y17.6646 I-0.4124 J0.5955
G2 X19.7524 Y17.6326 I-0.3564 J0.6424
G2 X19.6855 Y17.6071 I-0.3209 J0.7423
G2 X19.6035 Y17.5834 I-0.3602 J1.0892
G2 X19.5207 Y17.5652 I-0.3556 J1.4219
G2 X19.4261 Y17.5498 I-0.3475 J1.8352
G2 X19.3311 Y17.5393 I-0.2533 J1.8528
G2 X19.2464 Y17.5345 I-0.1245 J1.4662
G2 X19.156 Y17.5362 I-0.0266 J0.9797
G2 X19.0888 Y17.5448 I0.0358 J0.5478
G2 X19.0141 Y17.5652 I0.0942 J0.4935
G2 X18.938 Y17.5987 I0.1944 J0.5445
G2 X18.8663 Y17.6418 I0.3589 J0.6779
G2 X18.7777 Y17.7074 I0.7461 J1.0997
G2 X18.702 Y17.7726 I0.9975 J1.2359
G2 X18.6267 Y17.8459 I1.1868 J1.2947
G2 X18.5584 Y17.9216 I1.042 J1.0083
G2 X18.5065 Y17.989 I0.7728 J0.6491
G2 X18.4577 Y18.0658 I0.7621 J0.5376
G2 X18.416 Y18.1481 I0.8345 J0.4743
G2 X18.3844 Y18.2264 I1.0503 J0.4698
G2 X18.3485 Y18.3347 I1.9819 J0.7173
G2 X18.3289 Y18.403 I2.533 J0.7643
G2 X18.297 Y18.5236 I7.8958 J2.1534
G2 X18.2742 Y18.6129 I32.5692 J8.3509
G2 X18.2554 Y18.6877 I22.8079 J5.7814
G2 X18.2368 Y18.7626 I19.6009 J4.9002
G2 X18.2207 Y18.8289 I15.3706 J3.7804
G2 X18.202 Y18.9137 I2.0627 J0.4979
G2 X18.1946 Y18.9602 I0.6122 J0.1215
G2 X18.1904 Y19.0339 I0.5845 J0.0707
G2 X18.1954 Y19.11 I0.6286 J-0.0031
G2 X18.2119 Y19.199 I0.7876 J-0.1001
G2 X18.2424 Y19.3019 I1.083 J-0.2657
G2 X18.2871 Y19.4098 I0.9842 J-0.3446
G2 X18.3337 Y19.4913 I0.6074 J-0.2925
G2 X18.3847 Y19.5573 I0.4967 J-0.3313
G2 X18.4518 Y19.6239 I0.5729 J-0.5107
G2 X18.4953 Y19.6595 I0.569 J-0.6494
G2 X18.5794 Y19.7218 I1.8231 J-2.3766
G3 X18.5866 Y19.7269 I-18.3422 J25.7241
G3 X18.5901 Y19.7294 I-4.5144 J6.3275
G3 X18.6751 Y19.791 I-4.1328 J5.7856
G3 X18.822 Y19.9003 I-12.836 J17.4199
G1 X18.822 Y19.9003
G1 X18.822 Y19.9003

(profile 2)
G0 Z0.15
T1 M6
G0 X12.3319 Y7.4484
G1 Z-0.1 F30
G2 X12.5007 Y6.8637 I-65.123 J-19.1131 F60
G2 X12.5906 Y6.5368 I-20.3532 J-5.7758
G2 X12.6608 Y6.2675 I-23.8818 J-6.3654
G2 X12.7299 Y5.9896 I-25.3507 J-6.4521
G2 X12.7965 Y5.7077 I-22.4822 J-5.4607
G2 X12.8433 Y5.4958 I-12.7056 J-2.9181
G2 X12.8766 Y5.3318 I-9.0936 J-1.9298
G2 X12.905 Y5.1771 I-8.0703 J-1.5613
G2 X12.9212 Y5.0805 I-8.3863 J-1.4566
G2 X12.9528 Y4.8818 I-35.0334 J-5.6703
G3 X12.9642 Y4.8089 I125.7399 J19.6208
G3 X12.9703 Y4.7696 I36.4092 J5.703
G3 X12.9909 Y4.6408 I41.6429 J6.5689
G3 X13.0395 Y4.3401 I227.6986 J36.6401
G2 X13.0934 Y4.0058 I-203.7941 J-33.0698
G2 X13.1153 Y3.8678 I-34.8143 J-5.5907
G2 X13.1425 Y3.6905 I-26.7302 J-4.1841
G2 X13.1646 Y3.5389 I-19.5743 J-2.9312
G2 X13.1787 Y3.4368 I-18.3228 J-2.5989
G2 X13.1996 Y3.2815 I-42.253 J-5.7533
G2 X13.2204 Y3.1222 I-50.4106 J-6.6752
G2 X13.2314 Y3.0353 I-15.0661 J-1.9466
G2 X13.2464 Y2.9066 I-9.7792 J-1.2062
G2 X13.2532 Y2.8378 I-2.8683 J-0.3155
G2 X13.2574 Y2.7679 I-1.4138 J-0.1213
G2 X13.2576 Y2.757 I-0.3024 J-0.011
G2 X13.2571 Y2.7396 I-0.3026 J0
G2 X13.2561 Y2.7299 I-0.1081 J0.0062
G2 X13.2551 Y2.7239 I-0.1071 J0.0159
G1 X13.2553 Y2.7247
G1 X13.2557 Y2.7253
G2 X13.2581 Y2.7283 I0.0162 J-0.0108
G3 X13.2606 Y2.7304 I-0.0105 J0.015
G3 X13.2639 Y2.7315 I-0.0043 J0.0176
G2 X13.2561 Y2.7299 I-0.0287 J0.1166
G2 X13.2485 Y2.7288 I-0.0209 J0.1182
G2 X13.2199 Y2.7266 I-0.0485 J0.4371
G2 X13.1338 Y2.7238 I-0.1455 J3.2038
G2 X13.1073 Y2.7234 I-0.1144 J6.1652
G2 X13.0419 Y2.7225 I-0.5245 J36.7969
G3 X12.9106 Y2.7205 I0.3421 J-27.4155
G3 X12.8419 Y2.719 I0.1281 J-7.4158
G3 X12.7231 Y2.7146 I0.1458 J-5.4927
G3 X12.6485 Y2.7097 I0.1009 J-2.0944
G3 X12.5458 Y2.6969 I0.1089 J-1.2956
G3 X12.4721 Y2.68 I0.0994 J-0.6029
G3 X12.4142 Y2.6587 I0.1332 J-0.4509
G3 X12.3583 Y2.6294 I0.2033 J-0.4568
G3 X12.3189 Y2.6037 I0.355 J-0.5856
G3 X12.2797 Y2.5741 I0.4394 J-0.6238
G3 X12.2478 Y2.547 I0.5148 J-0.6391
G3 X12.2143 Y2.5158 I0.6752 J-0.7559
G3 X12.178 Y2.4775 I0.4919 J-0.503
G3 X12.1516 Y2.4437 I0.2829 J-0.2489
G3 X12.1216 Y2.3912 I0.2768 J-0.1925
G3 X12.1021 Y2.3347 I0.287 J-0.1309
G3 X12.0929 Y2.2756 I0.3466 J-0.0842
G3 X12.0917 Y2.2422 I0.4734 J-0.0334
G3 X12.0928 Y2.2108 I0.4746 J0
G3 X12.1005 Y2.1498 I0.506 J0.0336
G3 X12.1154 Y2.0919 I0.4594 J0.0872
G3 X12.1358 Y2.0408 I0.4128 J0.1347
G3 X12.1629 Y1.9915 I0.4217 J0.1997
G3 X12.187 Y1.9566 I0.4236 J0.2674
G3 X12.2172 Y1.9195 I0.5541 J0.4192
G3 X12.2501 Y1.8839 I0.6134 J0.5342
G3 X12.2687 Y1.8653 I1.1881 J1.1662
G2 X12.2423 Y1.8546 I-0.8587 J2.0893
G3 X12.2096 Y1.8415 I1.3773 J-3.4746
G3 X12.191 Y1.8337 I0.4219 J-1.0358
G3 X12.1574 Y1.8186 I0.4328 J-1.0102
G3 X12.1267 Y1.8035 I0.3934 J-0.8393
G3 X12.0929 Y1.7851 I0.3734 J-0.7256
G3 X12.0639 Y1.7673 I0.2969 J-0.5156
G3 X12.0311 Y1.7438 I0.2546 J-0.389
G3 X12.0031 Y1.7192 I0.2135 J-0.2714
G3 X11.9749 Y1.6878 I0.2324 J-0.2375
G3 X11.9502 Y1.6525 I0.284 J-0.2246
G3 X11.93 Y1.6154 I0.3558 J-0.2183
G3 X11.9122 Y1.5739 I0.4664 J-0.2248
G3 X11.898 Y1.5312 I0.5056 J-0.1913
G3 X11.8877 Y1.4881 I0.4982 J-0.1425
G3 X11.8812 Y1.4458 I0.4915 J-0.096
G3 X11.8783 Y1.402 I0.5322 J-0.0574
G3 X11.8782 Y1.3878 I0.5597 J-0.0143
G3 X11.8787 Y1.3635 I0.5599 J0
G3 X11.8817 Y1.3234 I0.6266 J0.0272
G3 X11.888 Y1.2809 I0.5338 J0.0576
G3 X11.8972 Y1.2427 I0.3975 J0.0754
G3 X11.9128 Y1.1989 I0.3893 J0.1139
G3 X11.9342 Y1.1547 I0.445 J0.1878
G3 X11.9571 Y1.1162 I0.5376 J0.2944
G3 X11.9888 Y1.0699 I0.892 J0.577
G3 X12.016 Y1.0338 I1.046 J0.7579
G3 X12.0459 Y0.9966 I1.1501 J0.8963
G3 X12.0765 Y0.9617 I0.7402 J0.6168
G3 X12.1007 Y0.9374 I0.3168 J0.291
G3 X12.1346 Y0.9098 I0.2311 J0.2489
G3 X12.1709 Y0.8881 I0.1533 J0.215
G3 X12.2121 Y0.872 I0.1133 J0.2292
G3 X12.2566 Y0.8622 I0.0931 J0.317
G3 X12.2953 Y0.8584 I0.0582 J0.3911
G3 X12.3401 Y0.8578 I0.0305 J0.6183
G3 X12.3796 Y0.8596 I-0.0186 J0.8374
G3 X12.4281 Y0.8638 I-0.0942 J1.3557
G3 X12.4722 Y0.8691 I-0.1755 J1.6626
G3 X12.5239 Y0.8765 I-0.3093 J2.3332
G3 X12.5715 Y0.8843 I-0.418 J2.6921
G3 X12.622 Y0.8935 I-0.5301 J3.0561
G3 X12.657 Y0.9004 I-0.5449 J2.8594
G3 X12.6578 Y0.8947 I0.351 J0.0432
G3 X12.6703 Y0.84 I0.3235 J0.0452
G3 X12.6921 Y0.7895 I0.2698 J0.0866
G3 X12.7246 Y0.7419 I0.2668 J0.1474
G3 X12.7676 Y0.6975 I0.3194 J0.2659
G3 X12.8114 Y0.6628 I0.3203 J0.3596
G3 X12.8623 Y0.6308 I0.3416 J0.4873
G3 X12.9142 Y0.6048 I0.3067 J0.5477
G3 X12.9699 Y0.583 I0.2746 J0.6185
G3 X13.0273 Y0.5661 I0.2256 J0.6595
G3 X13.087 Y0.5539 I0.1753 J0.7054
G3 X13.1464 Y0.5467 I0.119 J0.7385
G3 X13.2106 Y0.544 I0.0706 J0.8845
G3 X13.2713 Y0.5453 I0.0074 J1.0045
G3 X13.3411 Y0.5508 I-0.0737 J1.3868
G3 X13.4041 Y0.5585 I-0.1818 J1.7494
G3 X13.4771 Y0.5699 I-0.3387 J2.4104
G3 X13.5416 Y0.5819 I-0.4246 J2.474
G3 X13.595 Y0.5934 I-0.3306 J1.6643
G3 X13.6449 Y0.6063 I-0.2226 J0.9578
G3 X13.6812 Y0.6185 I-0.1243 J0.431
G3 X13.7157 Y0.6338 I-0.1339 J0.3493
G3 X13.7209 Y0.6364 I-0.2009 J0.3985
G3 X13.7278 Y0.6188 I0.3764 J0.1391
G3 X13.7472 Y0.5795 I0.3558 J0.1509
G3 X13.7717 Y0.5409 I0.3893 J0.2201
G3 X13.7994 Y0.5051 I0.4374 J0.3102
G3 X13.8367 Y0.4636 I0.6998 J0.5909
G3 X13.8811 Y0.4195 I0.8545 J0.8157
G3 X13.9279 Y0.3777 I0.8152 J0.8653
G3 X13.9879 Y0.3305 I0.6848 J0.8084
G3 X14.0428 Y0.294 I0.4414 J0.6043
G3 X14.1026 Y0.2619 I0.3509 J0.5819
G3 X14.1666 Y0.2352 I0.3066 J0.6468
G3 X14.222 Y0.2177 I0.2519 J0.6992
G3 X14.2808 Y0.2039 I0.2166 J0.79
G3 X14.3301 Y0.1958 I0.1583 J0.8069
G3 X14.382 Y0.1903 I0.1215 J0.9078
G3 X14.4203 Y0.1881 I0.0803 J1.0542
G3 X14.4776 Y0.1865 I0.1011 J2.5427
G3 X14.5423 Y0.1863 I0.0382 J2.32
G3 X14.5853 Y0.1878 I-0.0108 J0.9457
G3 X14.6524 Y0.1947 I-0.0419 J0.735
G3 X14.7066 Y0.2065 I-0.0621 J0.4148
G3 X14.7629 Y0.2279 I-0.1022 J0.3535
G3 X14.8156 Y0.2584 I-0.1652 J0.346
G3 X14.852 Y0.2867 I-0.2356 J0.3411
G3 X14.8901 Y0.3228 I-0.4008 J0.461
G3 X14.9199 Y0.3554 I-0.5303 J0.5135
G3 X14.9462 Y0.3882 I-0.4918 J0.4222
G3 X14.9715 Y0.4246 I-0.4895 J0.3679
G3 X14.9933 Y0.4615 I-0.4688 J0.3019
G3 X14.9971 Y0.4685 I-0.49 J0.2647
G2 X15.028 Y0.4434 I-0.9016 J-1.1418
G2 X15.0679 Y0.409 I-1.0944 J-1.3104
G2 X15.1082 Y0.3721 I-1.195 J-1.3444
G2 X15.1505 Y0.331 I-1.4283 J-1.5118
G2 X15.1917 Y0.2886 I-1.5003 J-1.5003
G2 X15.2304 Y0.2465 I-1.4474 J-1.3689
G2 X15.2437 Y0.2315 I-1.4172 J-1.2654
G2 X15.2708 Y0.2004 I-5.7298 J-5.008
G3 X15.3091 Y0.1565 I4.0305 J3.4845
G3 X15.3293 Y0.1342 I0.9807 J0.8668
G3 X15.3648 Y0.0976 I0.7762 J0.7184
G3 X15.3955 Y0.0694 I0.4561 J0.4649
G3 X15.4482 Y0.0291 I0.3708 J0.4299
G3 X15.5039 Y-0.0039 I0.2974 J0.4395
G3 X15.5646 Y-0.0302 I0.235 J0.4595
G3 X15.6275 Y-0.0482 I0.1683 J0.4692
G3 X15.69 Y-0.0579 I0.1122 J0.5186
G3 X15.7561 Y-0.0604 I0.0564 J0.599
G3 X15.8188 Y-0.0562 I-0.01 J0.6202
G3 X15.88 Y-0.0458 I-0.0703 J0.5961
G3 X15.9358 Y-0.0303 I-0.1296 J0.5773
G3 X15.9893 Y-0.0097 I-0.1804 J0.5466
G3 X16.0368 Y0.0143 I-0.2187 J0.4918
G3 X16.0772 Y0.0407 I-0.1959 J0.3443
G3 X16.1161 Y0.0753 I-0.1776 J0.2389
G3 X16.1471 Y0.1166 I-0.1679 J0.1584
G3 X16.167 Y0.1597 I-0.2056 J0.1211
G3 X16.1802 Y0.2081 I-0.35 J0.121
G3 X16.1866 Y0.247 I-0.5666 J0.1133
G3 X16.192 Y0.298 I-1.0935 J0.1418
G3 X16.1949 Y0.342 I-1.3656 J0.1129
G3 X16.1966 Y0.389 I-1.561 J0.0786
G3 X16.1968 Y0.4148 I-1.3273 J0.0259
G3 X16.1967 Y0.4345 I-1.3275 J0
G3 X16.1953 Y0.4716 I-0.8212 J-0.0122
G3 X16.1943 Y0.4858 I-0.6824 J-0.041
G3 X16.2332 Y0.4833 I0.0555 J0.566
G3 X16.3016 Y0.4848 I0.02 J0.6825
G3 X16.379 Y0.4945 I-0.0515 J0.7228
G3 X16.458 Y0.5129 I-0.1425 J0.7888
G3 X16.5377 Y0.5398 I-0.2537 J0.8824
G3 X16.6216 Y0.5766 I-0.4074 J1.0454
G3 X16.702 Y0.6201 I-0.4666 J0.9579
G3 X16.7657 Y0.6631 I-0.3587 J0.5995
G3 X16.8216 Y0.7119 I-0.3286 J0.4332
G3 X16.866 Y0.7642 I-0.3002 J0.2999
G3 X16.8953 Y0.8116 I-0.3213 J0.2309
G3 X16.9178 Y0.8629 I-0.36 J0.1885
G3 X16.9307 Y0.9063 I-0.3867 J0.1386
G3 X16.9382 Y0.9493 I-0.3482 J0.083
G3 X16.9404 Y0.9875 I-0.3479 J0.0392
G3 X16.9404 Y0.9885 I-0.3814 J0.001
G3 X16.9385 Y1.0266 I-0.3814 J0
G3 X16.9331 Y1.0628 I-0.3881 J-0.039
G3 X16.9245 Y1.0977 I-0.3561 J-0.07
G3 X16.9118 Y1.133 I-0.3513 J-0.106
G3 X16.8953 Y1.1679 I-0.3766 J-0.1572
G3 X16.876 Y1.2007 I-0.4023 J-0.2146
G3 X16.8527 Y1.2339 I-0.4611 J-0.2979
G3 X16.8271 Y1.2654 I-0.4635 J-0.3505
G3 X16.7989 Y1.2956 I-0.4577 J-0.3994
G3 X16.7747 Y1.3185 I-0.4359 J-0.4359
G3 X16.7337 Y1.3544 I-1.392 J-1.5512
G3 X16.7543 Y1.3547 I-0.0917 J6.3761
G3 X16.776 Y1.3552 I-0.0294 J1.6675
G3 X16.8385 Y1.3586 I-0.0418 J1.3581
G3 X16.8886 Y1.364 I-0.0629 J0.8159
G3 X16.9523 Y1.3762 I-0.0875 J0.6279
G3 X17.0044 Y1.3931 I-0.0896 J0.3651
G3 X17.0554 Y1.4193 I-0.1252 J0.3075
G3 X17.1024 Y1.4542 I-0.1934 J0.3087
G3 X17.1332 Y1.4845 I-0.2596 J0.2957
G3 X17.1631 Y1.5203 I-0.3751 J0.3429
G3 X17.1887 Y1.558 I-0.3413 J0.2588
G3 X17.2078 Y1.5954 I-0.2576 J0.1552
G3 X17.2235 Y1.6422 I-0.2929 J0.1247
G3 X17.2338 Y1.6959 I-0.4564 J0.1152
G3 X17.2388 Y1.7496 I-0.6856 J0.0905
G3 X17.2403 Y1.8058 I-1.055 J0.0562
G3 X17.2402 Y1.8138 I-1.0565 J0
G3 X17.2375 Y1.8809 I-1.0151 J-0.0077
G3 X17.231 Y1.9355 I-0.6179 J-0.0457
G3 X17.2167 Y1.9954 I-0.4197 J-0.0687
G3 X17.1944 Y2.0476 I-0.2794 J-0.0887
G3 X17.1637 Y2.0927 I-0.249 J-0.1364
G3 X17.1237 Y2.134 I-0.2906 J-0.2416
G3 X17.0836 Y2.1659 I-0.3301 J-0.3726
G3 X17.0333 Y2.1991 I-0.4486 J-0.6258
G3 X16.9809 Y2.2286 I-0.5179 J-0.8569
G3 X16.9114 Y2.2632 I-0.8252 J-1.5714
G3 X16.8449 Y2.2934 I-1.0564 J-2.2448
G3 X16.7518 Y2.3327 I-1.9399 J-4.4586
G3 X16.6694 Y2.3658 I-2.3192 J-5.6484
G3 X16.5778 Y2.4012 I-2.7454 J-6.9733
G3 X16.4854 Y2.4354 I-2.1623 J-5.7105
G3 X16.415 Y2.4599 I-1.167 J-3.2387
G3 X16.3321 Y2.4863 I-0.8755 J-2.6053
G3 X16.2627 Y2.5057 I-0.5302 J-1.7605
G3 X16.192 Y2.5224 I-0.4264 J-1.6471
G3 X16.121 Y2.536 I-0.3532 J-1.6518
G3 X16.0579 Y2.5455 I-0.2796 J-1.6502
G3 X15.9956 Y2.5524 I-0.2082 J-1.5964
G3 X15.9529 Y2.5556 I-0.1352 J-1.4842
G3 X15.8822 Y2.5594 I-0.2678 J-4.3094
G2 X15.8296 Y2.5622 I0.197 J4.3115
G2 X15.806 Y2.5638 I0.0556 J0.9596
G2 X15.7977 Y2.5645 I0.0911 J1.0979
G2 X15.825 Y2.6207 I2.0057 J-0.9412
G2 X15.8876 Y2.7382 I2.6519 J-1.3368
G2 X15.9738 Y2.8855 I4.1959 J-2.3566
G2 X16.0422 Y2.9954 I5.6024 J-3.4135
G2 X16.1567 Y3.1728 I14.5495 J-9.2634
G2 X16.2279 Y3.2811 I20.9528 J-13.7034
G2 X16.3939 Y3.5314 I111.5498 J-73.7828
G3 X16.5256 Y3.7297 I-181.8411 J120.8637
G3 X16.5333 Y3.7414 I-51.7978 J34.3469
G3 X16.5957 Y3.8358 I-51.8055 J34.3353
G3 X16.8074 Y4.1595 I-36.3787 J24.0155
G3 X16.8295 Y4.1937 I-36.5903 J23.6917
G3 X17.0101 Y4.4771 I-22.5633 J14.5795
G3 X17.251 Y4.8679 I-21.874 J13.7494
G3 X17.4848 Y5.2629 I-22.1022 J13.3509
G3 X17.7302 Y5.6941 I-26.1379 J15.1612
G3 X18.0145 Y6.2117 I-37.416 J20.8895
G3 X18.2817 Y6.7136 I-40.6046 J21.9413
G3 X18.5336 Y7.2013 I-38.0943 J19.9825
G3 X18.7483 Y7.6297 I-36.9415 J18.7807
G3 X18.9685 Y8.0817 I-40.9339 J20.2183
G3 X19.1233 Y8.4074 I-41.9578 J20.1522
G3 X19.2754 Y8.7337 I-41.9728 J19.7607
G3 X19.3045 Y8.7968 I-37.7266 J17.4051
G3 X19.3519 Y8.9002 I-101.3969 J46.5739
G2 X19.4328 Y9.0752 I23.9512 J-10.9718
G2 X19.4569 Y9.125 I2.0648 J-0.9642
G2 X19.4926 Y9.1909 I0.9287 J-0.4615
G2 X19.5052 Y9.209 I0.1269 J-0.0749
G2 X19.5145 Y9.2176 I0.0351 J-0.0286
G2 X19.5178 Y9.2192 I0.0067 J-0.0097
G2 X19.5234 Y9.2203 I0.0089 J-0.0294
G2 X19.5623 Y9.2224 I0.0389 J-0.3639
G2 X19.5686 Y9.2224 I-0.0001 J-1.4432
G2 X19.5825 Y9.2223 I-0.0289 J-6.5714
G3 X19.7069 Y9.226 I0.0111 J1.7095
G3 X19.8314 Y9.2388 I-0.1146 J1.7253
G3 X19.9358 Y9.2553 I-0.4063 J2.9108
G3 X20.0812 Y9.2829 I-1.0246 J5.8073
G3 X20.2304 Y9.3147 I-1.4606 J7.2148
G3 X20.3993 Y9.3542 I-2.09 J9.3256
G3 X20.5958 Y9.4045 I-1.9717 J8.1053
G3 X20.7692 Y9.4537 I-1.7072 J6.3426
G3 X20.9848 Y9.5222 I-1.8815 J6.2962
G3 X21.2072 Y9.6012 I-2.2887 J6.7968
G3 X21.4666 Y9.7035 I-2.7068 J7.2411
G3 X21.7234 Y9.8157 I-2.9951 J7.2085
G3 X22.0132 Y9.9561 I-3.1053 J6.7764
G3 X22.2757 Y10.0982 I-2.9096 J5.6872
G3 X22.5453 Y10.2617 I-3.0772 J5.3791
G3 X22.8128 Y10.4429 I-3.5156 J5.4785
G3 X23.068 Y10.6346 I-3.8224 J5.3525
G3 X23.3123 Y10.8376 I-4.0373 J5.1098
G3 X23.5412 Y11.0471 I-4.2771 J4.9016
G3 X23.762 Y11.2694 I-4.5977 J4.7876
G3 X23.965 Y11.4937 I-4.8285 J4.5747
G3 X24.156 Y11.7251 I-4.9506 J4.2805
G3 X24.3241 Y11.9479 I-5.2771 J4.1557
G3 X24.488 Y12.1847 I-5.8075 J4.1947
G3 X24.6253 Y12.4 I-6.021 J3.9907
G3 X24.7508 Y12.6134 I-5.7824 J3.545
G3 X24.8532 Y12.8026 I-5.3768 J3.0321
G3 X24.9436 Y12.9851 I-4.8962 J2.5404
G3 X25.0136 Y13.1392 I-4.9587 J2.3448
G3 X25.086 Y13.3119 I-6.1799 J2.6922
G3 X25.149 Y13.4738 I-6.7045 J2.7017
G3 X25.1986 Y13.6119 I-4.7961 J1.8
G3 X25.2465 Y13.7608 I-3.8538 J1.3217
G3 X25.2777 Y13.8753 I-2.1905 J0.6584
G3 X25.2943 Y13.9499 I-1.7726 J0.434
G3 X25.3155 Y14.0633 I-4.2463 J0.8529
G2 X25.3251 Y14.1169 I4.439 J-0.7693
G2 X25.3289 Y14.1358 I0.6483 J-0.1204
G2 X25.3358 Y14.163 I0.3868 J-0.0837
G2 X25.3386 Y14.1708 I0.0687 J-0.02
G2 X25.3398 Y14.1733 I0.0171 J-0.0072
G2 X25.3563 Y14.1825 I0.1291 J-0.2115
G3 X25.3739 Y14.1917 I-0.3155 J0.6183
G3 X25.387 Y14.1995 I-0.1204 J0.2202
G3 X25.4224 Y14.2266 I-0.1276 J0.2029
